!!!COM:	Ludwig van Beethoven
!!!OTL:	String Quartet, Op. 18, no. 1
**kern	**kern	**kern	**kern	**dynam
*part4	*part3	*part2	*part1	*part1
*staff4	*staff3	*staff2	*staff1	*
*I"Violoncello	*I"Viola	*I"Violino II	*I"Violino I	*
*I'Vc.	*I'Vla	*I'Vln II	*I'Vln I	*
!!pagebreak:original
!!pagebreak:original
!!pagebreak:original
!!pagebreak:original
*clefF4	*clefC3	*clefG2	*clefG2	*
*k[b-]	*k[b-]	*k[b-]	*k[b-]	*
*M3/4	*M3/4	*M3/4	*M3/4	*
=1-	=1-	=1-	=1-	=1-
!LO:TX:B:t=Allegro con brio	!	!	!	!
[4F	[4F	[4f	[4f	.
(>8FL]	(<8FL]	(<8fL]	(<8fL]	.
16GL	16GL	16gL	16gL	.
16FJJ)	16FJJ)	16fJJ)	16fJJ)	.
8E'L	8E'L	8e'L	8e'L	.
8F'J	8F'J	8f'J	8f'J	.
=2	=2	=2	=2	=2
4C	4C	4c	4c	.
4r	4r	4r	4r	.
4r	4r	4r	4r	.
=3	=3	=3	=3	=3
[4F	[4F	[4f	[4f	.
(>8FL]	(<8FL]	(<8fL]	(<8fL]	.
16GL	16GL	16gL	16gL	.
16FJJ)	16FJJ)	16fJJ)	16fJJ)	.
8E'L	8E'L	8e'L	8e'L	.
8F'J	8F'J	8f'J	8f'J	.
=4	=4	=4	=4	=4
4D	4D	4d	4d	.
4r	4r	4r	4r	.
4r	4r	4r	4r	.
=5	=5	=5	=5	=5
(>2.D	(>2.d	[2.b-	[4ff	.
.	.	.	(>8ffL]	.
.	.	.	16ggL	.
.	.	.	16ffJJ)	.
.	.	.	8ee'L	.
.	.	.	8ff'J	[
=6	=6	=6	=6	=6
2.E)	2.c)	(>2b-]	(>2gg	.
.	.	4g)	4b-)	.
=7	=7	=7	=7	=7
4F)	(>4c	2f	2a	.
4D	4d	.	.	.
4BB-)	4G)	(<8.b-L	(>8.ddL	.
.	.	16gJk)	16b-Jk)	.
=8	=8	=8	=8	=8
2.C	(<8cL	(<2f	(<2a	.
.	8Bn	.	.	.
.	8c	.	.	.
.	8BJ	.	.	.
.	4c)	4e)	4g)	.
=9	=9	=9	=9	=9
[4F	[4F	[4f	[4f	.
(>8FL]	(<8FL]	(<8fL]	(<8fL]	.
16GL	16GL	16gL	16gL	.
16FJJ)	16FJJ)	16fJJ)	16fJJ)	.
8E'L	8E'L	8e'L	8e'L	.
8F'J	8F'J	8f'J	8f'J	.
=10	=10	=10	=10	=10
!!linebreak:original
!!linebreak:original
!!linebreak:original
!!linebreak:original
4C	4C	4c	4c	.
4r	(>4r	4r	4r	.
4r	4r	4r	4r	.
=11	=11	=11	=11	=11
[4F	[4F	[4f	[4f	.
(>8FL]	(<8FL]	(<8fL]	(<8fL]	.
16GL	16GL	16gL	16gL	.
16FJJ)	16FJJ)	16fJJ)	16fJJ)	.
8E'L	8E'L	8e'L	8e'L	.
8F'J	8F'J	8f'J	8f'J	.
=12	=12	=12	=12	=12
4D	4D	4d	4d	.
4r	4r	4r	(>4r	.
4r	4r	4r	(>4r	.
=13	=13	=13	=13	=13
4%3r	4%3r	4%3r	[4ff	.
.	.	.	(>8ffL]	.
.	.	.	(>16ggL	.
.	.	.	16ffJJ)	.
.	.	.	8ee'L	.
.	.	.	8ff'J	.
=14	=14	=14	=14	=14
2.c#X	2.b-	2.ee	(>2aa	.
.	.	.	4gg)	[
=15	=15	=15	=15	=15
4%3r	4%3r	4%3r	[4gg	.
.	.	.	(>8ggL]	.
.	.	.	(>16aaL	.
.	.	.	16ggJJ)	.
.	.	.	8ff#X'L	.
.	.	.	8gg'J	.
=16	=16	=16	=16	=16
2.f#X	2.ee-X	2.cc	(>2bb-	.
.	.	.	4aa)	[
=17	=17	=17	=17	=17
4%3r	4%3r	4%3r	[4aa	.
.	.	.	(>8aaL]	.
.	.	.	16bb-L	.
.	.	.	16aaJJ)	.
.	.	.	8gg'L	.
.	.	.	8aa'J	.
=18	=18	=18	=18	=18
!LO:TX:i:t=cresc.	!	!	!	!
!LO:TX:i:t=cresc.	!	!	!	!
!LO:TX:i:t=cresc.	!	!	!	!
!LO:TX:i:t=cresc.	!	!	!	!
4.B-	4.f#X	4.ee-X	4.ccc	.
8B-L	8gL	8ddL	8bb-L	.
8B-	8a	8cc	8aa	.
8B-J	8b-J	8b-J	8ggJ	.
=19	=19	=19	=19	=19
(>2c	(>2cc	(>2a	(>2ff	.
.	.	16qb-/LL	16qgg/LL	.
.	.	16qa/	16qff/	.
.	.	16qg/	16qee/	.
.	.	16qa/JJ	16qff/JJ	.
4C)	4e)	8ccL	8aaL	.
.	.	8b-J)	8ggJ)	.
=20	=20	=20	=20	=20
!!linebreak:original
!!linebreak:original
!!linebreak:original
!!linebreak:original
4F	4fn	4a	4ff	.
4r	4r	4r	4r	.
4r	4r	4r	4r	.
=21	=21	=21	=21	=21
4%3r	4%3r	[4c	4%3r	.
.	.	(<8cL]	.	.
.	.	16dL	.	.
.	.	16cJJ)	.	.
.	.	8Bn'L	.	.
.	.	8c'J	.	.
=22	=22	=22	=22	=22
2.Bn	2.a-X	(<2e-X	[4ff	.
.	.	.	(>8ffL]	.
.	.	.	16ggL	.
.	.	.	16ffJJ)	.
.	.	4d)	8een'L	.
.	.	.	8ff'J	.
=23	=23	=23	=23	=23
4%3r	4%3r	[4d	4%3r	.
.	.	(<8dL]	.	.
.	.	16e-XL	.	.
.	.	16dJJ)	.	.
.	.	8c#X'L	.	.
.	.	8d'J	.	.
=24	=24	=24	=24	=24
2.C#X	2.B-	(<2f	[4gg	.
.	.	.	(>8ggL]	.
.	.	.	16aaL	.
.	.	.	16ggJJ)	.
.	.	4en)	8ff#X'L	.
.	.	.	8gg'J	.
=25	=25	=25	=25	=25
4%3r	4%3r	[4g	4%3r	.
.	.	(<8gL]	.	.
.	.	16aL	.	.
.	.	16gJJ)	.	.
.	.	8f#X'L	.	.
.	.	8g'J	.	.
=26	=26	=26	=26	=26
2F	2e-X	(>2b-	[4ccc	.
.	.	.	(>8cccL]	.
.	.	.	16dddL	.
.	.	.	16cccJJ)	.
4FF'	4e-'	4a')	8bbn'L	.
.	.	.	8ccc'J	.
=27	=27	=27	=27	=27
2B-	(>2f#X	(>2cc	[4ddd	.
.	.	.	(>8dddL]	.
.	.	.	16eee-XL	.
.	.	.	16dddJJ)	.
4BB-'	4g')	4b-')	8ccc#X'L	.
.	.	.	8ddd'J	.
=28	=28	=28	=28	=28
!!pagebreak:original
!!pagebreak:original
!!pagebreak:original
!!pagebreak:original
4C'	4B-'	(<8aL	4eeen'	.
.	.	8g)	.	.
4C'	4B-'	(<8a	4eee'	.
.	.	8g)	.	.
4C'	4B-'	(<8a	4eee'	.
.	.	8gJ)	.	.
=29	=29	=29	=29	=29
4FF	8AL	8fnL	4fff	.
.	8cJ	8A 8f	.	.
4r	8cL	8A 8f	4r	.
.	8c	8A 8f	.	.
4r	8c	8A 8f	4r	.
.	8cJ	8AJ 8f	.	.
=30	=30	=30	=30	=30
(<4.C	2.c	2.A 2.f	4r	.
.	.	.	8r	.
16DLL	.	.	8a	.
16CJJ)	.	.	.	.
.	.	.	(<16qg/LL	.
.	.	.	16qa/JJ	.
8BBn'L	.	.	4a)	.
8C'J	.	.	.	.
=31	=31	=31	=31	=31
4CC	2.c	2.G 2.e	(>4.cc	.
4r	.	.	.	.
.	.	.	8b-L)	.
4r	.	.	8g'	.
.	.	.	8f'J	.
=32	=32	=32	=32	=32
(<4.C	2.c	2.G 2.e	4e	.
.	.	.	8r	.
16DLL	.	.	8b-	.
16CJJ)	.	.	.	.
.	.	.	(<16qa/LL	.
.	.	.	16qb-/JJ	.
8BBn'L	.	.	4b-)	.
8C'J	.	.	.	.
=33	=33	=33	=33	=33
4CC	2.c	2.A 2.f	(>4.dd	.
4r	.	.	.	.
.	.	.	8ccL)	.
4r	.	.	8a'	.
.	.	.	8g'J	.
=34	=34	=34	=34	=34
(<4.C	2.c	2.A 2.f	4f	.
.	.	.	8r	.
16DLL	.	.	8ff	.
16CJJ)	.	.	.	.
.	.	.	(<16qee/LL	.
.	.	.	16qff/JJ	.
8BBn'L	.	.	4ff)	.
8C'J	.	.	.	.
=35	=35	=35	=35	=35
4CC	2.e	2.B- 2.g	(>4.aa	.
4r	.	.	.	.
.	.	.	8ggL)	.
4r	.	.	8gg'	.
.	.	.	8ff'J	.
=36	=36	=36	=36	=36
(<4.C	2.e	2.B- 2.g	(>8ffL	.
.	.	.	8eeJ)	.
.	.	.	8ee'L	.
16DLL	.	.	8dd'	.
16CJJ)	.	.	.	.
8BBn'L	.	.	8cc'	.
8C'J	.	.	8b-'J	.
=37	=37	=37	=37	=37
!!linebreak:original
!!linebreak:original
!!linebreak:original
!!linebreak:original
4C#X'	8eL	2.A 2.g	[2.a	.
.	8e	.	.	.
4AA'	8c#X	.	.	.
.	8c#	.	.	.
4C#'	8e	.	.	.
.	8eJ	.	.	.
=38	=38	=38	=38	=38
4D	2.d	2.A 2.f	8aL]	.
.	.	.	(>16bnL	.
.	.	.	16cc#XJJ	.
4r	.	.	16ddLL	.
.	.	.	16ee	.
.	.	.	16ff	.
.	.	.	16eeJJ	.
4r	.	.	16ddLL	.
.	.	.	16ccn	.
.	.	.	16bn	.
.	.	.	16aJJ)	.
=39	=39	=39	=39	=39
4BBn'	8dL	2.G 2.f	[2.g	.
.	8d	.	.	.
4GG'	8Bn	.	.	.
.	8B	.	.	.
4BB'	8d	.	.	.
.	8dJ	.	.	.
=40	=40	=40	=40	=40
4C	2.c	2.G 2.e-X	8gL]	.
.	.	.	(>16aL	.
.	.	.	16bnJJ	.
4r	.	.	16ccLL	.
.	.	.	16b	.
.	.	.	16cc	.
.	.	.	16bJJ	.
4r	.	.	16ccLL	.
.	.	.	16b	.
.	.	.	16cc	.
.	.	.	16bJJ)	.
=41	=41	=41	=41	=41
[2.AA-X	(<4.E-X	[2.c [2.e-X	[2.cc	.
.	16FLL	.	.	.
.	16E-JJ)	.	.	.
.	8D'L	.	.	.
.	8E-'J	.	.	.
=42	=42	=42	=42	=42
!!linebreak:original
!!linebreak:original
!!linebreak:original
!!linebreak:original
2.AA-]	2.E-X	4c] 4e-]	(>4.cc]	.
.	.	4c'	.	.
.	.	.	16dd-XLL	.
.	.	.	16ccJJ)	.
.	.	4c'	8b-X'L	.
.	.	.	8cc'J	.
=43	=43	=43	=43	=43
[2.BB-	(<4.E-X	[2.d-X	(>4.ee-X	.
.	16FLL	.	8dd-XL)	.
.	16E-JJ)	.	.	.
.	8D'L	.	8b-'	.
.	8E-'J	.	8a-X'J	.
=44	=44	=44	=44	=44
2.BB-]	2.E-X	4d-]	4g	.
.	.	4d-X'	8r	.
.	.	.	(>16ee-XLL	.
.	.	.	16dd-XJJ)	.
.	.	4d-'	8cc'L	.
.	.	.	8dd-'J	.
=45	=45	=45	=45	=45
[2.C	(<4.E-X	[2.e-X	(>4.ff	.
.	16FLL	.	8ee-XL)	.
.	16E-JJ)	.	.	.
.	8D'L	.	8cc'	.
.	8E-'J	.	8b-'J	.
=46	=46	=46	=46	=46
4C]	4E-X	4e-]	4an	.
!LO:TX:i:t=cresc.	!	!	!	!
!LO:TX:i:t=cresc.	!	!	!	!
!LO:TX:i:t=cresc.	!	!	!	!
4C'	4an'	4g-X'	8r	.
!	!	!	!LO:TX:i:t=cresc.	!
.	.	.	(>16ffLL	.
.	.	.	16ee-XJJ)	.
4C'	4a'	4g-'	8ddn'L	.
.	.	.	8ee-'J	.
=47	=47	=47	=47	=47
2.D	2.Bn	2.a-X	2.ff	.
=48	=48	=48	=48	=48
!!pagebreak:original
!!pagebreak:original
!!pagebreak:original
!!pagebreak:original
4E-X'	4c'	4g'	4ee-X'	.
4F'	4f'	4a-X'	4dd'	.
4F#X'	4e-X'	4an'	4cc'	.
=49	=49	=49	=49	=49
4G	4d	4g	16bn'LL	.
.	.	.	16g'	.
.	.	.	16an'	.
.	.	.	16b'JJ	.
4r	8r	8r	16cc'LL	.
.	.	.	16dd'	.
.	8Bn'L	8d'L	16een'	.
.	.	.	16ff#X'JJ	.
4r	8B'	8d'	16gg'LL	.
.	.	.	16ff#'	.
.	8c'J	8e-X'J	16gg'	.
.	.	.	16ff#'JJ	.
=50	=50	=50	=50	=50
16G'LL	4Bn	4d	4gg	.
16GG'	.	.	.	.
16AAn'	.	.	.	.
16BBn'JJ	.	.	.	.
16C'LL	8r	8r	8r	.
16D'	.	.	.	.
16En'	8g'L	8dd'L	8bbn'L	.
16F#X'JJ	.	.	.	.
16G'LL	8g'	8dd'	8bb'	.
16F#'	.	.	.	.
16G'	8g'J	8ee-X'J	8ccc'J	.
16F#'JJ	.	.	.	.
=51	=51	=51	=51	=51
4G	4g	4dd	16bbnLL	.
!	!	!	!LO:TX:i:t=cresc.	!
.	.	.	16g	.
.	.	.	16a	.
.	.	.	16bnJJ	.
4r	8r	8r	16ccLL	.
.	.	.	16dd	.
!	!LO:TX:i:t=cresc.	!	!	!
!	!LO:TX:i:t=cresc.	!	!	!
.	8Bn'L	8d'L	16een	.
.	.	.	16ff#XJJ	.
4r	8B'	8d'	16ggLL	.
.	.	.	16ff#	.
.	8c'J	8e-X'J	16gg	.
.	.	.	16ff#JJ	.
=52	=52	=52	=52	=52
16GLL	4Bn	4d	4gg	.
16GG	.	.	.	.
16AA	.	.	.	.
16BBnJJ	.	.	.	.
16CLL	8r	8r	8r	.
16D	.	.	.	.
16En	8g'L	8dd'L	8bbn'L	.
16F#XJJ	.	.	.	.
16GLL	8g'	8dd'	8bb'	.
16F#	.	.	.	.
16G	8g'J	8ee-X'J	8ccc'J	.
16F#JJ	.	.	.	.
=53	=53	=53	=53	=53
!!linebreak:original
!!linebreak:original
!!linebreak:original
!!linebreak:original
4G	4g	4dd	16bbnLL	.
!	!	!	!LO:TX:i:t=cresc.	!
.	.	.	16G	.
.	.	.	16A	.
.	.	.	16BnJJ	.
8r	8r	8r	16cLL	.
.	.	.	16d	.
!LO:TX:i:t=cresc.	!	!	!	!
!LO:TX:i:t=cresc.	!	!	!	!
!LO:TX:i:t=cresc.	!	!	!	!
8G'L	8Bn'L	8dd'L	16en	.
.	.	.	16f#XJJ	.
8G'	8B'	8dd'	16gLL	.
.	.	.	16f#	.
8C'J	8c'J	8ee-X'J	16g	.
.	.	.	16f#JJ	.
=54	=54	=54	=54	=54
16GLL	16BnLL	16ddLL	16gLL	.
16GG	16G	16G	16g	.
16AA	16A	16A	16a	.
16BBnJJ	16BJJ	16BnJJ	16bnJJ	.
16CLL	16cLL	16cLL	16ccLL	.
16D	16d	16d	16dd	.
16En	16en	16en	16een	.
16F#XJJ	16f#XJJ	16f#XJJ	16ff#XJJ	.
16GLL	16gLL	16gLL	16ggLL	.
16F#	16f#	16f#	16ff#	.
16G	16g	16g	16gg	.
16F#JJ	16f#JJ	16f#JJ	16ff#JJ	.
=55	=55	=55	=55	=55
4G	4g	4g	8gg	.
.	.	.	4gg	.
4r	4r	4r	.	.
.	.	.	4gg	.
4r	4r	4r	.	.
.	.	.	(>8gg	.
=56	=56	=56	=56	=56
!LO:TX:i:t=decresc.	!	!	!	!
4%3r	4%3r	4%3r	8gg#X)	.
.	.	.	4gg#	.
.	.	.	4gg#	.
.	.	.	(>8gg#	.
=57	=57	=57	=57	=57
4%3r	4%3r	4%3r	8aa)	.
.	.	.	(>8aaL	.
.	.	.	8ffJ)	.
.	.	.	(>8ffL	.
.	.	.	8ddJ)	.
.	.	.	(>8dd	.
=58	=58	=58	=58	=58
4%3r	4r	4r	8bn)	.
.	.	.	(<8bL	.
.	4r	4r	8gJ)	.
.	.	.	(<8gL	.
.	8f'L	8g'L	8bJ)	.
.	(>8fJ	[8gJ	(>8b	.
=59	=59	=59	=59	=59
!!linebreak:original
!!linebreak:original
!!linebreak:original
!!linebreak:original
4%3r	8e)	8g]	8cc)	.
.	(>8eL	(<8gL	(>8ccL	.
.	8dJ)	8bnJ)	8ddJ)	.
.	(>8dL	(>8bL	(>8ddL	.
.	8cJ)	8ccJ)	8eeJ)	.
.	8c'	(>8cc	(>8ee	.
=60	=60	=60	=60	=60
4%3r	2Bn	4ee	4gg	.
.	.	4dd)	4ff)	.
.	8e'L	4r	4r	.
.	(>8eJ	.	.	.
=61	=61	=61	=61	=61
4%3r	8f)	4%3r	4%3r	.
.	(>8fL	.	.	.
.	8dJ)	.	.	.
.	(>8dL	.	.	.
.	8BnJ)	.	.	.
.	(<8B	.	.	.
=62	=62	=62	=62	=62
4%3r	8G#X)	4r	4r	.
.	(<8G#L	.	.	.
.	8eJ)	4r	4r	.
.	(>8eL	.	.	.
.	8dJ)	(>4bn	(>4gg#X	.
.	(>8d	.	.	.
=63	=63	=63	=63	=63
4%3r	8c)	4ee	4aa	.
.	(<8cL	.	.	.
.	8AJ)	4e	4ccc	.
.	(<8AL	.	.	.
.	8dJ)	[4cc)	4ff#X)	.
.	(>8d	.	.	.
=64	=64	=64	=64	=64
4r	8Gn)	(>4cc]	(>4aa	.
.	(>8GL	.	.	.
8r	8gJ)	8bn)	8ggn)	.
(>8F#XL	8r	8r	8r	.
8G	4r	4r	4r	.
8G#XJ	.	.	.	.
=65	=65	=65	=65	=65
8A')	4%3r	4%3r	4%3r	.
(>8AL	.	.	.	.
8FnJ)	.	.	.	.
(>8FL	.	.	.	.
8DJ)	.	.	.	.
(>8D	.	.	.	.
=66	=66	=66	=66	=66
8BBn)	4r	4r	4r	.
(<8BBL	.	.	.	.
8GGJ)	4r	4r	4r	.
(<8GGL	.	.	.	.
8BBJ)	8G'L	8d'L	8ff'L	.
(<8BB	[8GJ	(<8dJ	(>8ffJ	.
=67	=67	=67	=67	=67
!!pagebreak:original
!!pagebreak:original
!!pagebreak:original
!!pagebreak:original
8C)	8G]	8e)	8ee)	.
(<8CL	(>8gL	(>8ccL	(>8eeL	.
8DJ)	8fJ)	8bnJ)	8ddJ)	.
(>8DL	(>8fL	(<8bL	(>8ddL	.
8EJ)	8eJ)	8gJ)	8ccJ)	.
8E	8e	8g	8cc	.
=68	=68	=68	=68	=68
4.F	4.d	4.a-X	(>4cc	.
.	.	.	8bn)	.
8r	8r	8r	8r	.
4r	4r	8g'L	4r	.
.	.	(<8gJ	.	.
=69	=69	=69	=69	=69
4%3r	4r	8a-X)	4r	.
.	.	(<8a-L	.	.
.	8a-X'	8fJ)	4r	.
.	(>8a-L	(<8fL	.	.
!	!LO:TX:i:t=cresc.	!	!	!
.	8fJ)	8dJ)	[4aa-X	.
.	(>8f	(<8d	.	.
=70	=70	=70	=70	=70
!LO:TX:i:t=cresc.	!	!	!	!
!LO:TX:i:t=cresc.	!	!	!	!
4%3r	8d)	8Bn)	(>4aa-]	.
.	(>8dL	(<8BL	.	.
.	8e-XJ)	8cJ)	4gg	.
.	(<8cL	4ee-X	.	.
.	8F#XJ)	.	4ccc)	.
.	(<8F#	8ee-	.	.
=71	=71	=71	=71	=71
4%3r	8G)	(>2ee-X	(>2ccc	.
.	(>8GL	.	.	.
.	8gJ)	.	.	.
.	(>8gL	.	.	.
.	8GJ)	8.ffL	8.dddL	.
.	8G	.	.	.
.	.	16ddJk)	16bbnJk)	.
*clefG2	*	*	*	*
=72	=72	=72	=72	=72
(>4.gg^	8cL	8ccL	4ccc	.
.	8CJ	8GJ 8en	.	.
.	8CL	8GL 8e	4r	.
16aaLL	8C	8G 8e	.	.
16ggJJ)	.	.	.	.
8ff#X'L	8C	8G 8e	4r	.
8gg'J	8CJ	8GJ 8e	.	.
=73	=73	=73	=73	=73
2.gg	2.C	2.G 2.e	(>4.ee	.
.	.	.	16ffLL	.
.	.	.	16eeJJ)	.
.	.	.	8dd'L	.
.	.	.	8cc'J	.
=74	=74	=74	=74	=74
!!linebreak:original
!!linebreak:original
!!linebreak:original
!!linebreak:original
(>4.gg	2.D	2.G 2.f	4bn	.
.	.	.	4r	.
16aaLL	.	.	.	.
16ggJJ)	.	.	.	.
8ff#X'L	.	.	4r	.
8gg'J	.	.	.	.
=75	=75	=75	=75	=75
!LO:TX:i:t=cresc.	!	!	!	!
2.gg	2.D 2.G	2.Bn	(>4.ff	.
.	.	.	16ggLL	.
.	.	.	16ffJJ)	.
.	.	.	8ee'L	.
.	.	.	8dd'J	.
=76	=76	=76	=76	=76
!LO:TX:i:t=cresc.	!	!	!	!
!LO:TX:i:t=cresc.	!	!	!	!
!LO:TX:i:t=cresc.	!	!	!	!
(>4.gg	8EL 8G	8B-XL	4cc#X	.
.	8E 8G	8B-	.	.
.	8E 8G	8B-	4r	.
16aaLL	8E 8G	8B-	.	.
16ggJJ)	.	.	.	.
8ff#X'L	8E 8G	8B-	4r	.
8gg'J	8EJ 8G	8B-J	.	.
=77	=77	=77	=77	=77
2.bb-X	8EL	8GL 8g	[4bb-	.
.	8E	8G 8g	.	.
.	8E	8G 8g	8bb-L]	.
.	8E	8G 8g	(>16aaL	.
.	.	.	16ggJJ	.
.	8E	8G 8g	16ffLL	.
.	.	.	16ee	.
.	8EJ	8GJ 8g	16dd	.
.	.	.	16cc#XJJ)	fp
=78	=78	=78	=78	=78
4aa'	4F'	4A'	16dd'LL	.
.	.	.	16a'	.
.	.	.	16bn'	.
.	.	.	16cc#X'JJ	.
*clefF4	*	*	*	*
4F'	4d'	4f' 4a	16dd'LL	.
.	.	.	16ee'	.
.	.	.	16ff'	.
.	.	.	16ee'JJ	.
4r	4r	4r	16dd'LL	.
.	.	.	16a'	.
.	.	.	16bn'	.
.	.	.	16cc#'JJ	.
=79	=79	=79	=79	=79
4%3r	4%3r	4%3r	16ddLL	.
.	.	.	16ee	.
.	.	.	16ff	.
.	.	.	16eeJJ	.
!	!	!	!LO:TX:i:t=cresc.	!
.	.	.	16ddLL	.
.	.	.	16a	.
.	.	.	16bn	.
.	.	.	16cc#XJJ	.
.	.	.	16ddLL	.
.	.	.	16ee	.
.	.	.	16ff	.
.	.	.	16eeJJ	.
=80	=80	=80	=80	=80
!!linebreak:original
!!linebreak:original
!!linebreak:original
!!linebreak:original
4r	4r	4r	16ddLL	.
.	.	.	16a	.
.	.	.	16bn	.
.	.	.	16cc#XJJ	.
4r	4r	4r	16ddLL	.
.	.	.	16ee	.
.	.	.	16ff	.
.	.	.	16eeJJ	.
16r	16r	16r	16ddLL	.
!LO:TX:i:t=cresc.	!	!	!	!
!LO:TX:i:t=cresc.	!	!	!	!
!LO:TX:i:t=cresc.	!	!	!	!
!LO:TX:i:t=cresc.	!	!	!	!
16AALL	16ALL	16ALL	16a	.
16BBn	16Bn	16Bn	16bn	.
16C#XJJ	16c#XJJ	16c#XJJ	16cc#JJ	.
=81	=81	=81	=81	=81
16DLL	16dLL	16dLL	16ddLL	.
16E	16e	16e	16ee	.
16F	16f	16f	16ff	.
16GJJ	16gJJ	16gJJ	16ggJJ	.
16ALL	16aLL	16aLL	16aaLL	.
16G	16g	16g	16gg	.
16F	16f	16f	16ff	.
16EJJ	16eJJ	16eJJ	16eeJJ	.
16DLL	16dLL	16dLL	16ddLL	.
16Cn	16cn	16cn	16ccn	.
16BBn	16Bn	16Bn	16bn	.
16AAJJ	16AJJ	16AJJ	16aJJ	.
=82	=82	=82	=82	=82
4.GG	4.G	4.G	2.g	.
(<16AALL	(<16ALL	(<16ALL	.	.
16BBnJJ	16BnJJ	16BnJJ	.	.
16CLL	16cLL	16cLL	.	.
16D	16d	16d	.	.
16E	16e	16e	.	.
16F#XJJ)	16f#XJJ)	16f#XJJ)	.	.
=83	=83	=83	=83	=83
.	.	.	(<16qcc/LL	.
.	.	.	16qdd/JJ	.
8GL	8gL	8gL	2.dd)	.
8G	8fn	8bn	.	.
8G	8f	8b	.	.
8G	8f	8b	.	.
8G	8f	8b	.	.
8GJ	8fJ	8bJ	.	.
=84	=84	=84	=84	=84
4C	4e	4cc	4cc	.
4r	(<4.E	4.G	(<4.c	.
4r	.	.	.	.
.	8D)	8G	8Bn)	.
=85	=85	=85	=85	=85
4%3r	(<8DL	(<8GL	(<8BnL	.
.	8Bn)	8d)	8f)	.
.	(<8B	(<8d	(<8f	.
.	8c)	8c)	8e)	.
.	(<8c	8c	(<8e	.
.	8FJ)	8cJ	8aJ)	.
=86	=86	=86	=86	=86
!!pagebreak:original
!!pagebreak:original
!!pagebreak:original
!!pagebreak:original
4%3r	(<8FL	8cL	(<8aL	.
.	8E)	8c	8g)	.
.	(<8E	(<8c	(<8g	.
.	8e)	8g)	8cc)	.
.	(<8e	(<8g	(<8cc	.
.	8dJ)	8fJ)	8bnJ)	.
=87	=87	=87	=87	=87
4%3r	(>8dL	(<8fL	(>8bnL	.
.	8BnJ)	8dJ)	8ffJ)	.
.	4B	4d	4ff	.
.	4r	4r	4r	.
=88	=88	=88	=88	=88
4%3r	4%3r	4%3r	4%3r	.
=89	=89	=89	=89	=89
!LO:TX:i:t=cresc.	!	!	!	!
!LO:TX:i:t=cresc.	!	!	!	!
!LO:TX:i:t=cresc.	!	!	!	!
!LO:TX:i:t=cresc.	!	!	!	!
2.c	2.g	2.cc	(>4.ee	.
.	.	.	16ffLL	.
.	.	.	16eeJJ)	.
.	.	.	8dd'L	.
.	.	.	8ee'J	.
=90	=90	=90	=90	=90
[2.F#X	[2.d	[2.cc	[2.aa	.
=91	=91	=91	=91	=91
(>4F#]	(>4d]	4cc_	(>4aa]	.
4G')	4e')	4cc']	4gg')	.
4GG'	4d'	4f'	4bn'	.
=92	=92	=92	=92	=92
4C	4c'	4e'	4cc'	.
4r	(>4.e	4.g	(>4.cc	.
4r	.	.	.	.
.	8d)	8g	8bn)	.
=93	=93	=93	=93	=93
4%3r	(>8dL	(<8gL	(>8bnL	.
.	8Bn)	8d)	8ff)	.
.	(>8B	(<8d	(>8ff	.
.	8c)	8e)	8ee)	.
.	(>8c	(<8e	(>8ee	.
.	8fJ)	8ccJ)	8aaJ)	.
=94	=94	=94	=94	=94
4%3r	(>8fL	8ccL	(>8aaL	.
.	8e)	8cc	8gg)	.
.	(>8e	(>8cc	(>8gg	.
.	8ee)	8gg)	8ccc)	.
.	(>8ee	(>8gg	(>8ccc	.
.	8ddJ)	8ffJ)	8bbnJ)	.
=95	=95	=95	=95	=95
!!linebreak:original
!!linebreak:original
!!linebreak:original
!!linebreak:original
4%3r	(>8ddL	(>8ffL	(>8bbnL	.
.	8bnJ)	8ddJ)	8fffJ)	.
.	4b	4dd	4fff	.
.	4r	4r	4r	.
=96	=96	=96	=96	=96
4%3r	4%3r	4%3r	4%3r	.
=97	=97	=97	=97	=97
2.C	2.c	2.G	2.c 2.e-X	.
=98	=98	=98	=98	=98
2.AA-X	2.A-X	2.A-X	2.c 2.e-X	.
=99	=99	=99	=99	=99
2FF#X	2F#X	2A	2c 2e-X	.
4FFn	4Fn	4A	4c 4e-	.
=100	=100	=100	=100	=100
4EE'	4E	4A	4c 4en	.
4DD'	4An'	4d'	4f'	.
4GG'	4F'	4Bn'	4d'	.
=101	=101	=101	=101	=101
(<4.C	8EL	8cL	4c	.
.	8c	8G 8e	.	.
.	8c	8G 8e	4r	.
16DLL	8c	8G 8e	.	.
16CJJ)	.	.	.	.
8BBn'L	8c	8G 8e	4r	.
8C'J	8cJ	8GJ 8e	.	.
=102	=102	=102	=102	=102
4CC	8cL	8GL 8e	4r	.
.	8c	8G 8e	.	.
4r	8c	8G 8e	4ee	.
.	8c	8G 8e	.	.
.	.	.	(<16qdd/LL	.
.	.	.	16qee/JJ	.
4r	8c	8G 8e	4ee)	.
.	8cJ	8GJ 8e	.	.
=103	=103	=103	=103	=103
(<4.C	2.d	2.G 2.f	(>4gg	.
.	.	.	4ff)	.
16DLL	.	.	.	.
16CJJ)	.	.	.	.
8BBn'L	.	.	4r	.
8C'J	.	.	.	.
=104	=104	=104	=104	=104
!!linebreak:original
!!linebreak:original
!!linebreak:original
!!linebreak:original
4CC	2.d	2.G 2.f	4r	.
4r	.	.	4bbn	.
.	.	.	(<16qaa/LL	.
.	.	.	16qbb/JJ	.
4r	.	.	4bb)	.
=105	=105	=105	=105	=105
(<16DLL	2.c	2.G 2.e	(>8cccL	.
16C	.	.	.	.
16BBn	.	.	8eeeJ)	.
16CJJ)	.	.	.	.
(<16DLL	.	.	4gg	.
16C	.	.	.	.
16BB	.	.	.	.
16CJJ)	.	.	.	.
(<16DLL	.	.	4r	.
16C	.	.	.	.
16BB	.	.	.	.
16CJJ)	.	.	.	.
=106	=106	=106	=106	=106
4CC	2.c	2.G 2.e	(>16ffLL	.
.	.	.	16ee	.
.	.	.	16dd	.
.	.	.	16eeJJ)	.
4r	.	.	(>16ffLL	.
.	.	.	16ee	.
.	.	.	16dd	.
.	.	.	16eeJJ)	.
4r	.	.	(>16ffLL	.
.	.	.	16ee	.
.	.	.	16dd	.
.	.	.	16eeJJ)	.
=107	=107	=107	=107	=107
(<16DLL	2.d	2.G 2.f	(>4gg	.
16C	.	.	.	.
16BBn	.	.	.	.
16CJJ)	.	.	.	.
(<16DLL	.	.	4ff)	.
16C	.	.	.	.
16BB	.	.	.	.
16CJJ)	.	.	.	.
(<16DLL	.	.	4r	.
16C	.	.	.	.
16BB	.	.	.	.
16CJJ)	.	.	.	.
=108	=108	=108	=108	=108
4CC	2.d	2.G 2.f	(>16cccLL	.
.	.	.	16bbn	.
.	.	.	16aa	.
.	.	.	16bbJJ)	.
4r	.	.	(>16cccLL	.
.	.	.	16bb	.
.	.	.	16aa	.
.	.	.	16bbJJ)	.
4r	.	.	(>16cccLL	.
.	.	.	16bb	.
.	.	.	16aa	.
.	.	.	16bbJJ)	.
=109	=109	=109	=109	=109
!!pagebreak:original
!!pagebreak:original
!!pagebreak:original
!!pagebreak:original
4C'	4c'	4G' 4e	16ccc'LL	.
.	.	.	16eee'	.
.	.	.	16ddd'	.
.	.	.	16ccc'JJ	.
4C'	4G' 4e	4G' 4e 4cc	16bbn'LL	.
.	.	.	16aa'	.
.	.	.	16gg'	.
.	.	.	16ff'JJ	.
4r	4r	4r	16ee'LL	.
.	.	.	16ccc'	.
.	.	.	16bb'	.
.	.	.	16aa'JJ	.
=110	=110	=110	=110	=110
!LO:TX:i:t=cresc.	!	!	!	!
4%3r	4%3r	4%3r	16ggLL	.
.	.	.	16ff	.
.	.	.	16ee	.
.	.	.	16ddJJ	.
.	.	.	16ccLL	.
.	.	.	16gg	.
.	.	.	16ff	.
.	.	.	16eeJJ	.
.	.	.	16ddLL	.
.	.	.	16cc	.
.	.	.	16bn	.
.	.	.	16aJJ	.
=111	=111	=111	=111	=111
4r	4r	4r	16gLL	.
.	.	.	16ee	.
.	.	.	16dd	.
.	.	.	16ccJJ	.
4r	4r	4r	16bnLL	.
.	.	.	16a	.
.	.	.	16g	.
.	.	.	16fJJ	.
16ELL	16ELL	16eLL	16eLL	.
!LO:TX:i:t=cresc.	!	!	!	!
!LO:TX:i:t=cresc.	!	!	!	!
!LO:TX:i:t=cresc.	!	!	!	!
!LO:TX:i:t=cresc.	!	!	!	!
16c	16c	16cc	16cc	.
16Bn	16Bn	16bn	16b	.
16AJJ	16AJJ	16aJJ	16aJJ	.
=112	=112	=112	=112	=112
16GLL	16GLL	16gLL	16gLL	.
16F	16F	16f	16f	.
16E	16E	16e	16e	.
16DJJ	16DJJ	16dJJ	16dJJ	.
(<16CLL	16CLL	(<16cLL	(<16cLL	.
16BBn	(<16Bn	16Bn	16Bn	.
16C	16c	16c	16c	.
16BBJJ	16BJJ	16BJJ	16BJJ	.
16CLL	16cLL	16cLL	16cLL	.
16BB	16B	16B	16B	.
16C	16c	16c	16c	.
16BBJJ)	16BJJ)	16BJJ)	16BJJ)	.
=113	=113	=113	=113	=113
4C	4c	4c	4c	.
4CC'	4E'	4G'	4c'	.
4CC'	4E'	4G'	4c'	.
=114	=114	=114	=114	=114
4CC'	4E'	4G'	4c'	.
4r	4r	4r	4r	.
4r	4r	4r	4r	.
=115:|!	=115:|!	=115:|!	=115:|!	=115:|!
!!linebreak:original
!!linebreak:original
!!linebreak:original
!!linebreak:original
4AA	4A	4A 4a	16aa'LL	.
.	.	.	16eee'	.
.	.	.	16ddd'	.
.	.	.	16ccc#X'JJ	.
4r	4r	4r	16bbn'LL	.
.	.	.	16aa'	.
.	.	.	16gg#X'	.
.	.	.	16ff#X'JJ	.
4r	4r	4r	16ee'LL	.
.	.	.	16aa'	.
.	.	.	16gg#'	.
.	.	.	16ff#'JJ	.
=116	=116	=116	=116	=116
4%3r	4%3r	4%3r	16ee'LL	.
.	.	.	16dd'	.
.	.	.	16cc#X'	.
.	.	.	16bn'JJ	.
.	.	.	16aLL	.
.	.	.	16ee	.
.	.	.	16dd	.
.	.	.	16cc#JJ	.
.	.	.	16bLL	.
.	.	.	16a	.
.	.	.	16g#X	.
.	.	.	16f#XJJ	.
=117	=117	=117	=117	=117
16ELL	16r	16r	16eLL	.
16A	16aLL	16aLL	16a	.
16G#X	16g#X	16g#X	16g#X	.
16F#XJJ	16f#XJJ	16f#XJJ	16f#XJJ	.
16ELL	16eLL	16eLL	16eLL	.
16D	16d	16d	16d	.
16C#X	16c#X	16c#X	16c#X	.
16BBnJJ	16BnJJ	16BnJJ	16BnJJ	.
(<16AALL	(<16ALL	(<16ALL	(<16ALL	.
16GG#X	16G#X	16G#X	16G#X	.
16AA	16A	16A	16A	.
16GG#JJ)	16G#JJ)	16G#JJ)	16G#JJ)	.
=118	=118	=118	=118	=118
4AA'	4A'	4A'	4A'	.
4AA'	4A'	4A'	4A'	.
4AA'	4A'	(<4A	(<4A	.
=119	=119	=119	=119	=119
(<4.BB-X	(<4.B-X	[2.B-X)	[2.B-X)	.
16CLL	16cLL	.	.	.
16BB-JJ)	16B-JJ)	.	.	.
8AA'L	8A'L	.	.	.
8BB-'J	8B-'J	.	.	.
=120	=120	=120	=120	=120
!!linebreak:original
!!linebreak:original
!!linebreak:original
!!linebreak:original
2.FF	2.F	4B-]	16B-]	.
.	.	.	16ddLL	.
.	.	.	16ff	.
.	.	.	16bb-JJ	.
.	.	4B-'	16dddLL	.
.	.	.	16bb-	.
.	.	.	16ddd	.
.	.	.	16bb-JJ	.
.	.	4B-'	16dddLL	.
.	.	.	16bb-	.
.	.	.	16ddd	.
.	.	.	16bb-JJ	.
=121	=121	=121	=121	=121
(<4.BB-	(<4.B-	[2.B-	4eee-X	.
.	.	.	4r	.
16CLL	16cLL	.	.	.
16BB-JJ)	16B-JJ)	.	.	.
8AA'L	8A'L	.	4r	.
8BB-'J	8B-'J	.	.	.
=122	=122	=122	=122	=122
2.GG	2.G	4B-]	16r	.
.	.	.	16ee-XLL	p
.	.	.	16gg	.
.	.	.	16bb-JJ	.
.	.	4B-'	16eee-XLL	.
.	.	.	16bb-	.
.	.	.	16eee-	.
.	.	.	16bb-JJ	.
.	.	4B-'	16eee-LL	.
.	.	.	16bb-	.
.	.	.	16eee-	.
.	.	.	16bb-JJ	.
=123	=123	=123	=123	=123
(>2.G	[2.e-X	(>4.b-	4eee-X	.
.	.	.	4r	.
.	.	16ccLL	.	.
.	.	16b-JJ)	.	.
.	.	8a'L	4r	.
.	.	8b-'J	.	.
=124	=124	=124	=124	=124
2.A)	(>2e-]	(>2cc	4%3r	.
.	4c)	4e-X)	.	.
=125	=125	=125	=125	=125
4%3r	4%3r	4%3r	(>2ccc	.
.	.	.	4ee-X)	.
=126	=126	=126	=126	=126
(>2.B-	[2.g	(>4.dd	4%3r	.
.	.	16eenLL	.	.
.	.	16ddJJ)	.	.
.	.	8cc#X'L	.	.
.	.	8dd'J	.	.
=127	=127	=127	=127	=127
!!pagebreak:original
!!pagebreak:original
!!pagebreak:original
!!pagebreak:original
2.c#X)	(>2g]	(>2ee	4%3r	.
.	4e)	4g)	.	.
=128	=128	=128	=128	=128
4%3r	4%3r	4%3r	(>2eeen	.
.	.	.	4gg)	.
=129	=129	=129	=129	=129
(>4.B-	4%3r	4%3r	4%3r	.
16cLL	.	.	.	.
16B-JJ)	.	.	.	.
8A'L	.	.	.	.
8B-'J	.	.	.	.
=130	=130	=130	=130	=130
4C#X'	(>4.b-	4%3r	4%3r	.
4D'	.	.	.	.
.	16ccLL	.	.	.
.	16b-JJ)	.	.	.
4D#X'	8a'L	.	.	.
.	8b-'J	.	.	.
=131	=131	=131	=131	=131
4E'	4c#X'	4r	(>4.bb-	.
4c#X'	4e'	(>4.b-	.	.
.	.	.	16cccLL	.
.	.	.	16bb-JJ)	.
4dn'	4f'	.	8aa'L	.
.	.	16ccLL	8bb-'J	.
.	.	16b-JJ)	.	.
=132	=132	=132	=132	=132
4e'	4g'	8a'L	4cc#X'	.
.	.	8b-'J	.	.
4e'	4g'	4gg'	4eee'	.
4f'	4a'	4ff'	4ddd'	.
=133	=133	=133	=133	=133
4g'	4b-'	[4ee	(>8ccc#XL	.
.	.	.	16eeeL	.
.	.	.	16dddJJ)	.
(>4.g	(>4.b-	(>8eeL]	(>4.ccc#	.
.	.	16ggL	.	.
.	.	16ffJJ)	.	.
.	.	(>8eeL	.	.
8f)	8a)	8ddJ)	8ddd')	.
=134	=134	=134	=134	=134
4g'	4b-'	[4ee	(>8ccc#XL	.
.	.	.	16eeeL	.
.	.	.	16dddJJ)	.
(>4.g	(>4.b-	(>8eeL]	(>4.ccc#	.
.	.	16ggL	.	.
.	.	16ffJJ)	.	.
.	.	(>8eeL	.	.
8f)	8a)	8ddJ)	8ddd)	.
=135	=135	=135	=135	=135
!!linebreak:original
!!linebreak:original
!!linebreak:original
!!linebreak:original
4%3r	4%3r	(>4.ee-X	4%3r	.
.	.	16ffLL	.	.
.	.	16ee-JJ)	.	.
.	.	8dd'L	.	.
.	.	8ee-'J	.	.
=136	=136	=136	=136	=136
(>4.e-X	4%3r	4f#X'	4%3r	.
.	.	4g'	.	.
16fLL	.	.	.	.
16e-JJ)	.	.	.	.
8d'L	.	4g#X'	.	.
8e-'J	.	.	.	.
=137	=137	=137	=137	=137
4F#X'	4r	4a'	(>4.eee-X	.
4G'	(>4.e-X	4b-'	.	.
.	.	.	16fffLL	.
.	.	.	16eee-JJ)	.
4G#X'	.	4bn'	8ddd'L	.
.	16fLL	.	8eee-'J	.
.	16e-JJ)	.	.	.
=138	=138	=138	=138	=138
4A'	8d'L	4cc'	4ff#X'	.
.	8e-X'J	.	.	.
4A'	4c'	4aa'	4ccc'	.
4B-'	4d'	4gg'	4bb-'	.
=139	=139	=139	=139	=139
[4c	[4e-X	(>8ff#XL	(>8aaL	.
.	.	16aaL	16cccL	.
.	.	16ggJJ)	16bb-JJ)	.
(>8cL]	(>8e-L]	(>4.ff#	(>4.aa	.
16AL	16cL	.	.	.
16B-JJ)	16dJJ)	.	.	.
(>8cL	(>8e-L	.	.	.
8B-J)	8dJ)	8gg')	8bb-')	.
=140	=140	=140	=140	=140
[4c	[4e-X	(>8ff#XL	(>8aaL	.
.	.	16aaL	16cccL	.
.	.	16ggJJ)	16bb-JJ)	.
(>8cL]	(>8e-L]	(>4.ff#	(>4.aa	.
16AL	16cL	.	.	.
16B-JJ)	16dJJ)	.	.	.
(>8cL	(>8e-L	.	.	.
8B-J)	8dJ)	8gg)	8bb-)	.
=141	=141	=141	=141	=141
4%3r	(>4.a-X	4%3r	4%3r	.
.	16b-LL	.	.	.
.	16a-JJ)	.	.	.
.	8g'L	.	.	.
.	8a-'J	.	.	.
=142	=142	=142	=142	=142
(>4.A-X	4Bn'	4%3r	4%3r	.
.	4c'	.	.	.
16B-LL	.	.	.	.
16A-JJ)	.	.	.	.
8G'L	4c#X'	.	.	.
8A-'J	.	.	.	.
=143	=143	=143	=143	=143
!!linebreak:original
!!linebreak:original
!!linebreak:original
!!linebreak:original
4BBn'	4d'	4r	(>4.aa-X	.
4C'	4e-X'	(<4.a-X	.	.
.	.	.	16bb-LL	.
.	.	.	16aa-JJ)	.
4C#X'	4en'	.	8gg'L	.
.	.	16b-LL	8aa-'J	.
.	.	16a-JJ)	.	.
=144	=144	=144	=144	=144
4D'	4f'	8g'L	4bn'	.
.	.	8a-X'J	.	.
4f'	4a-X'	4dd'	4aa-X'	.
4e-X'	4g'	4cc'	4aa-'	.
=145	=145	=145	=145	=145
(>8dL	(>8fL	(>8bnL	[4aa-X	.
16fL	16a-XL	16ddL	.	.
16e-XJJ)	16gJJ)	16ccJJ)	.	.
(>4.d	(>4.f	(>4.b	(>8aa-L]	.
.	.	.	16ffL	.
.	.	.	16ggJJ)	.
.	.	.	(>8aa-L	.
8e-)	8g)	8cc)	8ggJ)	.
=146	=146	=146	=146	=146
(>8dL	(>8fL	(>8bnL	[4aa-X	.
16fL	16a-XL	16ddL	.	.
16e-XJJ)	16gJJ)	16ccJJ)	.	.
(>4.d	(>4.f	(>4.b	(>8aa-L]	.
.	.	.	16ffL	.
.	.	.	16ggJJ)	.
.	.	.	(>8aa-L	.
8e-)	8g)	8cc)	8ggJ)	.
=147	=147	=147	=147	=147
4%3r	(>8b-L	(>8dd-XL	4r	.
.	16gL	16b-XL	.	.
.	16a-XJJ)	16ccJJ)	.	.
.	(>4.b-	(>4.dd-	(>8eeenL	.
.	.	.	16gggL	.
.	.	.	16fffJJ)	.
.	.	.	(>8eeeL	.
.	8a-)	8cc)	8fffJ)	.
=148	=148	=148	=148	=148
4%3r	(>8b-L	(>8dd-XL	4r	.
.	16gL	16b-XL	.	.
.	16a-XJJ)	16ccJJ)	.	.
.	(>4.b-	(>4.dd-	(>8eeeL	.
.	.	.	16gggL	.
.	.	.	16fffJJ)	.
.	.	.	(>8eeeL	.
.	8a-)	8cc)	8fffJ)	.
=149	=149	=149	=149	=149
!!pagebreak:original
!!pagebreak:original
!!pagebreak:original
!!pagebreak:original
(>8e-XL	(>8g-XL	(>8ccL	[4aan	.
16cL	16e-XL	16ee-XL	.	.
16d-XJJ)	16fJJ)	16dd-XJJ)	.	.
(>4.e-	(>4.g-	(>4.cc	(>8aaL]	.
.	.	.	16cccL	.
.	.	.	16bb-JJ)	.
.	.	.	(>8aaL	.
8d-)	8f)	8b-)	8bb-J)	.
=150	=150	=150	=150	=150
(>8e-XL	(>8g-XL	(>8ccL	[4aa	.
16cL	16e-XL	16ee-XL	.	.
16d-XJJ)	16fJJ)	16dd-XJJ)	.	.
(>4.e-	(>4.g-	(>4.cc	(>8aaL]	.
.	.	.	16cccL	.
.	.	.	16bb-JJ)	.
.	.	.	(>8aaL	.
8d-)	8f)	8b-)	8bb-J)	.
=151	=151	=151	=151	=151
4BB-	8B-L	8d-XL	[4ddd-X	.
.	8B-	8d-	.	.
4r	8B-	8d-	(>8ddd-L]	.
.	8B-	8d-	16eee-XL	.
.	.	.	16ddd-JJ)	.
4r	8B-	8d-	8ccc'L	.
.	8B-J	8d-J	8ddd-'J	.
=152	=152	=152	=152	=152
4%3r	8B-L	8d-XL	[4bb-	.
.	8B-	8d-	.	.
.	8B-	8d-	(>8bb-L]	.
.	8B-	8d-	16cccL	.
.	.	.	16bb-JJ)	.
.	8B-	8d-	8aa'L	.
.	8B-J	8d-J	8bb-'J	.
=153	=153	=153	=153	=153
4%3r	8B-L	8d-XL	[4ff	.
.	8B-	8d-	.	.
.	8B-	8d-	(>8ffL]	.
.	8B-	8d-	16gg-XL	.
.	.	.	16ffJJ)	.
.	8B-	8d-	8een'L	.
.	8B-J	8d-J	8ff'J	.
=154	=154	=154	=154	=154
4%3r	8B-L	8d-XL	[4dd-X	.
.	8B-	8d-	.	.
.	8B-	8d-	(>8dd-L]	.
.	8B-	8d-	16ee-XL	.
.	.	.	16dd-JJ)	.
.	8B-	8d-	8cc'L	.
.	8B-J	8d-J	8dd-'J	.
=155	=155	=155	=155	=155
2.G-X	8B-L	[4gg-X	8d-XL	.
.	8B-	.	8d-	.
.	8B-	(>8gg-L]	8d-	.
.	8B-	16aa-XL	8d-	.
.	.	16gg-JJ)	.	.
.	8B-	8ff'L	8d-	.
.	8B-J	8gg-'J	8d-J	.
=156	=156	=156	=156	=156
!!linebreak:original
!!linebreak:original
!!linebreak:original
!!linebreak:original
2.D-X	2.B-	[4dd-X	8d-XL	.
.	.	.	8d-	.
.	.	(>8dd-L]	8d-	.
.	.	16ee-XL	8d-	.
.	.	16dd-JJ)	.	.
.	.	8cc'L	8d-	.
.	.	8dd-'J	8d-J	.
=157	=157	=157	=157	=157
2.BB-	2.B-	[4b-	8d-XL	.
.	.	.	8d-	.
.	.	(>8b-L]	8d-	.
.	.	16cc-XL	8d-	.
.	.	16b-JJ)	.	.
.	.	8an'L	8d-	.
.	.	8b-'J	8d-J	.
=158	=158	=158	=158	=158
4GG-X'	2.B-	4g-X'	8d-XL	.
.	.	.	8d-	.
4FF'	.	4f'	8d-	.
.	.	.	8d-J	.
4EEn'	.	4en'	8cL	.
.	.	.	8cJ	.
=159	=159	=159	=159	=159
4FF'	2.A-X	2.c	[4ff	.
4r	.	.	(>8ffL]	.
.	.	.	16ggL	.
.	.	.	16ffJJ)	.
4r	.	.	8ee'L	.
.	.	.	8ff'J	.
=160	=160	=160	=160	=160
4%3r	2.A-X	2.c	[4cc	.
.	.	.	(>8ccL]	.
.	.	.	16dd-XL	.
.	.	.	16ccJJ)	.
.	.	.	8b-'L	.
.	.	.	8cc'J	.
=161	=161	=161	=161	=161
4%3r	2.A-X	2.c	[4a-X	.
.	.	.	(<8a-L]	.
.	.	.	16b-XL	.
.	.	.	16a-JJ)	.
.	.	.	8g'L	.
.	.	.	8a-'J	.
=162	=162	=162	=162	=162
4%3r	2.A-X	2.c	[4f	.
.	.	.	(<8fL]	.
.	.	.	16gL	.
.	.	.	16fJJ)	.
.	.	.	8e'L	.
.	.	.	8f'J	.
=163	=163	=163	=163	=163
2.D-X	2.A-X	[4dd-X	8fL	.
.	.	.	8f	.
.	.	(>8dd-L]	8f	.
.	.	16ee-XL	8f	.
.	.	16dd-JJ)	.	.
.	.	8cc'L	8f	.
.	.	8dd-'J	8fJ	.
=164	=164	=164	=164	=164
!!linebreak:original
!!linebreak:original
!!linebreak:original
!!linebreak:original
2.AA-X	2.A-X	[4a-X	8fL	.
.	.	.	8f	.
.	.	(<8a-L]	8f	.
.	.	16b-L	8f	.
.	.	16a-JJ)	.	.
.	.	8g'L	8f	.
.	.	8a-'J	8fJ	.
=165	=165	=165	=165	=165
2FF	2.A-X	[4f	8fL	.
.	.	.	8f	.
.	.	(<8fL]	8f	.
.	.	16g-XL	8f	.
.	.	16fJJ)	.	.
4DD-X	.	8e-X'L	8f	.
.	.	8f'J	8fJ	.
=166	=166	=166	=166	=166
4D-X'	2.A-X	4d-X'	8fL	.
.	.	.	8f	.
4C'	.	4c'	8f	.
.	.	.	8f	.
4BBn'	.	4Bn'	8f	.
.	.	.	8fJ	.
=167	=167	=167	=167	=167
4CC 4C	4G	4c	16en	.
.	.	.	16ccc'LL	.
.	.	.	16bbn'	.
.	.	.	16aa'JJ	.
8r	[2c	[2G [2en	16gg'LL	.
.	.	.	16ff'	.
8C'L	.	.	16ee'	.
.	.	.	16dd'JJ	.
8C'	.	.	[4cc	.
8C'J	.	.	.	.
=168	=168	=168	=168	=168
4EE	4c]	4G] 4en]	16ccLL]	.
.	.	.	16ccc'	.
.	.	.	16bbn'	.
.	.	.	16aa'JJ	.
8r	[2c	[2G [2e	16gg'LL	.
.	.	.	16ff'	.
8E'L	.	.	16ee'	.
.	.	.	16dd'JJ	.
8E'	.	.	[4cc	.
8E'J	.	.	.	.
=169	=169	=169	=169	=169
4GG	4c]	4G] 4e]	16ccLL]	.
.	.	.	16ccc	.
.	.	.	16bb-	.
.	.	.	16aaJJ	.
8r	[2c	[2G [2e	16ggLL	.
.	.	.	16ff	.
8G'L	.	.	16ee	.
.	.	.	16ddJJ	.
8G'	.	.	16ccLL	.
.	.	.	16ccc	.
8G'J	.	.	16bb-	.
.	.	.	16aaJJ	.
=170	=170	=170	=170	=170
!!pagebreak:original
!!pagebreak:original
!!pagebreak:original
!!pagebreak:original
4C	4c]	4G] 4e]	16ggLL	.
.	.	.	16ff	.
.	.	.	16ee	.
.	.	.	16ddJJ	.
8r	4c	4G 4e	16ccLL	.
.	.	.	16bn	.
8c'L	.	.	16dd	.
.	.	.	16ccJJ	.
8c'	4c	4G 4e	16bLL	.
.	.	.	16cc	.
8c'J	.	.	16dd	.
.	.	.	16ccJJ	.
=171	=171	=171	=171	=171
16CC'LL	4c'	4G 4e	4b-X	.
16C'	.	.	.	.
16BBn'	.	.	.	.
16AA'JJ	.	.	.	.
16GGLL	[2C [2c	4r	[2ee	.
16FF	.	.	.	.
16EE	.	.	.	.
16DDJJ	.	.	.	.
[4CC	.	16r	.	.
.	.	16c'LL	.	.
.	.	16d'	.	.
.	.	16e'JJ	.	.
=172	=172	=172	=172	=172
16CCLL]	4C] 4c]	16f'LL	4ee']	.
16C'	.	16g'	.	.
16BBn'	.	16a'	.	.
16AA'JJ	.	16bn'JJ	.	.
16GGLL	[2c [2e	[4cc	[2gg	.
16FF	.	.	.	.
16EE	.	.	.	.
16DDJJ	.	.	.	.
[4CC	.	16ccLL]	.	.
.	.	16c'	.	.
.	.	16d'	.	.
.	.	16e'JJ	.	.
=173	=173	=173	=173	=173
16CCLL]	4c] 4e]	16f'LL	4gg']	.
16C'	.	16g'	.	.
16BBn'	.	16a'	.	.
16AA'JJ	.	16bn'JJ	.	.
16GG'LL	[2c [2g	[4cc	[2bb-X	.
16FF'	.	.	.	.
16EE'	.	.	.	.
16DD'JJ	.	.	.	.
16CC'LL	.	16ccLL]	.	.
16C'	.	16c'	.	.
16BB'	.	16d'	.	.
16AA'JJ	.	16e'JJ	.	.
=174	=174	=174	=174	=174
!!linebreak:original
!!linebreak:original
!!linebreak:original
!!linebreak:original
16GG'LL	4c] 4g]	16f'LL	4bb-']	.
16FF'	.	16g'	.	.
16EE'	.	16a'	.	.
16DD'JJ	.	16bn'JJ	.	.
16CC'LL	4c 4g	16cc'LL	4eee'	.
16C'	.	16c'	.	.
16BBn'	.	16d'	.	.
16AA'JJ	.	16e'JJ	.	.
16GG'LL	4c 4g	16f'LL	4ggg'	.
16FF'	.	16g'	.	.
16EE'	.	16a'	.	.
16DD'JJ	.	16b'JJ	.	.
=175	=175	=175	=175	=175
8CC'L	2.c 2.g	[2cc	2.bbb-	.
16DD'L	.	.	.	.
16EE'JJ	.	.	.	.
16FF'LL	.	.	.	.
16GG'	.	.	.	.
16AA'	.	.	.	.
16BBn'JJ	.	.	.	.
[4C	.	8ccL]	.	.
.	.	16bn'L	.	.
.	.	16a'JJ	.	.
=176	=176	=176	=176	=176
8CL]	2.C 2.c	16g'LL	2.ee	.
.	.	16f'	.	.
16C'L	.	16e'	.	.
16D'JJ	.	16d'JJ	.	.
(>16ELL	.	[4c'	.	.
16F	.	.	.	.
16G	.	.	.	.
16AJJ)	.	.	.	.
[4B-X	.	8cL]	.	.
.	.	16c'L	.	.
.	.	16d'JJ	.	.
=177	=177	=177	=177	=177
!!linebreak:original
!!linebreak:original
!!linebreak:original
!!linebreak:original
8B-L]	2.C 2.c	(<16eLL	2.gg	.
.	.	16f	.	.
8A'	.	16g	.	.
.	.	16aJJ)	.	.
8G'	.	8b-X'L	.	.
8F'	.	8a'	.	.
8E'	.	8g'	.	.
8D'J	.	8f'J	.	.
=178	=178	=178	=178	=178
!LO:TX:i:t=cresc.	!	!	!	!
!LO:TX:i:t=cresc.	!	!	!	!
!LO:TX:i:t=cresc.	!	!	!	!
!LO:TX:i:t=cresc.	!	!	!	!
8C'L	2.C 2.c	8e'L	(>16cLL	.
.	.	.	16Bn	.
8D'	.	8f'	16c	.
.	.	.	16dJJ	.
8C'	.	8e'	16eLL	.
.	.	.	16f	.
8BB-'	.	8d'	16g	.
.	.	.	16aJJ	.
8AA'	.	8c'	16b-XLL	.
.	.	.	16cc	.
8GG'J	.	8B-'J	16dd	.
.	.	.	16eeJJ)	.
=179	=179	=179	=179	=179
(<4.FF	(<4.F	(<4.f	(>4.ff	.
16GGLL	16GLL	16gLL	16ggLL	.
16FFJJ)	16FJJ)	16fJJ)	16ffJJ)	.
8EE'L	8E'L	8e'L	8ee'L	.
8FF'J	8F'J	8f'J	8ff'J	.
=180	=180	=180	=180	=180
4CC	4C	4c	4cc	.
4r	4r	4r	4r	.
4r	4r	4r	4r	.
=181	=181	=181	=181	=181
!!pagebreak:original
!!pagebreak:original
!!pagebreak:original
!!pagebreak:original
(<4.FF	(<4.F	(<4.f	(>4.ff	.
16GGLL	16GLL	16gLL	16ggLL	.
16FFJJ)	16FJJ)	16fJJ)	16ffJJ)	.
8EE'L	8E'L	8e'L	8ee'L	.
8FF'J	8F'J	8f'J	8ff'J	.
=182	=182	=182	=182	=182
4DD	4D	4d	4dd	.
4r	4r	4r	4r	.
4r	4r	4r	4r	.
=183	=183	=183	=183	=183
(>2.D	(>2.d	[2.b-	[4ff	.
.	.	.	(>8ffL]	.
.	.	.	16ggL	.
.	.	.	16ffJJ)	.
.	.	.	8ee'L	.
.	.	.	8ff'J	[
=184	=184	=184	=184	=184
2.E)	2.c)	(>2b-]	(>2gg	.
.	.	4g)	4b-)	.
=185	=185	=185	=185	=185
(>4F	(>4c	(<2f	(>2a	.
4D	4d	.	.	.
4BB-)	4G)	8.b-L	8.ddL	.
.	.	16gJk)	16b-Jk)	.
=186	=186	=186	=186	=186
2.C	(<8cL	(<2f	(<2a	.
.	8Bn	.	.	.
.	8c	.	.	.
.	8BJ	.	.	.
.	4c)	4e)	4g)	.
=187	=187	=187	=187	=187
4%3r	4%3r	(>4.b-	4%3r	.
.	.	16ccLL	.	.
.	.	16b-JJ)	.	.
.	.	8a'L	.	.
.	.	8b-'J	.	.
=188	=188	=188	=188	=188
4%3r	(>4.a	(>4.cc	[2.ff	.
.	16b-LL	16dd-XLL	.	.
.	16aJJ)	16ccJJ)	.	.
.	8g'L	8b-'L	.	.
.	8a'J	8cc'J	.	.
=189	=189	=189	=189	=189
4%3r	(>4b-	2dd-X	(>4ff]	.
.	4g-X	.	[4bb-)	.
.	4e-X)	(>8.gg-XL	(>8.bb-L]	.
.	.	16ee-XJk)	16gg-XJk)	.
=190	=190	=190	=190	=190
4%3r	4a-X'	(>2dd-X	(>2ff	.
.	4A-X'	.	.	.
.	4r	4cc)	4ee-X)	.
=191	=191	=191	=191	=191
!!linebreak:original
!!linebreak:original
!!linebreak:original
!!linebreak:original
(>4D-X	(>2d-X	(<2f	4%3r	.
4BB-	.	.	.	.
4GG-X)	8.g-XL	8.b-L	.	.
.	16e-XJk)	16g-XJk)	.	.
=192	=192	=192	=192	=192
4AA-X'	(>2d-X	(<2f	4%3r	.
4A-X'	.	.	.	.
4r	4c)	4e-X)	.	.
=193	=193	=193	=193	=193
4%3r	(>4b-	2b-	(>2dd-X	.
.	4g-X	.	.	.
.	4e-X)	4b-	8.gg-XL	.
.	.	.	16ee-XJk)	.
=194	=194	=194	=194	=194
4%3r	4f'	(>2b-	(>2dd-X	.
.	4F'	.	.	.
.	4r	4a)	4cc)	.
=195	=195	=195	=195	=195
(>4B-	2B-	(<2d-X	4%3r	.
4G-X	.	.	.	.
4E-X)	4B-	8.g-XL	.	.
.	.	16e-XJk)	.	.
=196	=196	=196	=196	=196
!LO:TX:i:t=cresc.	!	!	!	!
!LO:TX:i:t=cresc.	!	!	!	!
!LO:TX:i:t=cresc.	!	!	!	!
(>2.F	(<2.A-X	(<2.d-X	4r	.
!	!	!	!LO:TX:i:t=cresc.	!
.	.	.	4dd-X	.
.	.	.	4dd-	.
=197	=197	=197	=197	=197
4D-X)	2.F)	2.a-X)	(>8dd-XL	.
.	.	.	8cc-X	.
4DD-X	.	.	8b-	.
.	.	.	8cc-	.
4DD-	.	.	8dd-	.
.	.	.	8cc-J)	.
=198	=198	=198	=198	=198
[2.GG-X	(<4.D-X	4g-X	4b-	.
.	.	4r	4r	.
.	16E-XLL	.	.	.
.	16D-JJ)	.	.	.
.	8C'L	4r	4r	.
.	8D-'J	.	.	.
=199	=199	=199	=199	=199
2.GG-]	[2.D-X	4r	4r	.
.	.	4B-	8r	.
.	.	.	8b-	.
.	.	.	(<16qa/LL	.
.	.	.	16qb-/JJ	.
.	.	4B-	4b-)	.
=200	=200	=200	=200	=200
[2.AA-X	(<4.D-]	[2.c-X	(>4.dd-X	.
.	16E-XLL	.	8cc-XL)	.
.	16D-XJJ)	.	.	.
.	8C'L	.	8a-X'	.
.	8D-'J	.	8g-X'J	.
=201	=201	=201	=201	=201
!!linebreak:original
!!linebreak:original
!!linebreak:original
!!linebreak:original
2.AA-]	[2.D-X	4c-]	4r	.
.	.	4c-X	8r	.
.	.	.	8cc-X	.
.	.	.	(<16qb-/LL	.
.	.	.	16qcc-/JJ	.
.	.	4c-	4cc-)	.
=202	=202	=202	=202	=202
[2.BB-	(<4.D-]	[2.d-X	(>4.ee-X	.
.	16E-XLL	.	8dd-XL)	.
.	16D-XJJ)	.	.	.
.	8C'L	.	8b-'	.
.	8D-'J	.	8a-X'J	.
=203	=203	=203	=203	=203
2.BB-]	2.D-X	4d-]	4g-X	.
.	.	4d-X	8r	.
.	.	.	8gg-X	.
.	.	.	(<16qff/LL	.
.	.	.	16qgg-/JJ	.
.	.	4d-	4gg-)	.
=204	=204	=204	=204	=204
[2.FF	(<4.D-X	2a-X	(>4.bb-X	.
.	16E-XLL	.	8aa-XL)	.
.	16D-JJ)	.	.	.
.	8C'L	8a-'L	8aa-'	.
.	8D-'J	8g-X'J	8gg-X'J	.
=205	=205	=205	=205	=205
4FF]	2.D-X	(<8g-XL	(>8gg-XL	.
.	.	8f)	8ff)	.
4AA-X	.	8f'	8ff'	.
.	.	8e-X'	8ee-X'	.
4DD-X	.	8d-X'	8dd-X'	.
.	.	8c-X'J	8cc-X'J	.
=206	=206	=206	=206	=206
!LO:TX:i:t=cresc.	!	!	!	!
!LO:TX:i:t=cresc.	!	!	!	!
!LO:TX:i:t=cresc.	!	!	!	!
!LO:TX:i:t=cresc.	!	!	!	!
(<2.GG-X	(<4.D-X	(<4An	(>4an	.
.	.	4B-)	4b-)	.
.	16E-XLL	.	.	.
.	16D-JJ)	.	.	.
.	8C'L	4B-'	4b-'	.
.	8D-'J	.	.	.
=207	=207	=207	=207	=207
2.FF)	2.D-X	(<4.B-	(>4.b-	.
.	.	16cnLL	16ccnLL	.
.	.	16B-JJ)	16b-JJ)	.
.	.	8A'L	8a'L	.
.	.	8B-'J	8b-'J	.
=208	=208	=208	=208	=208
2EEn	(<4.C	2gn	2ggn	.
.	16d-XLL	.	.	.
.	16cJJ)	.	.	.
4En'	8Bn'L	4g'	4b-'	.
.	8c'J	.	.	.
=209	=209	=209	=209	=209
!!pagebreak:original
!!pagebreak:original
!!pagebreak:original
!!pagebreak:original
4F'	4c'	4c'	4a-X'	.
4E-X'	4G'	4c'	4g'	.
4D-X'	8A-X'L	4Bn'	4f'	.
.	8F'J	.	.	.
=210	=210	=210	=210	=210
4C	4En	4G	16cc'LL	.
.	.	.	16c'	.
.	.	.	16d'	.
.	.	.	16e'JJ	.
4r	8r	8r	16f'LL	.
.	.	.	16g'	.
.	8e'L	8g'L	16an'	.
.	.	.	16bn'JJ	.
4r	8e'	8g'	16cc'LL	.
.	.	.	16b'	.
.	8f'J	8a-X'J	16cc'	.
.	.	.	16b'JJ	.
=211	=211	=211	=211	=211
16r'	4e	4g	4cc	.
16C'LL	.	.	.	.
16Dn'	.	.	.	.
16En'JJ	.	.	.	.
16F'LL	8r	8r	8r	.
16G'	.	.	.	.
16A'	8c'L	8g'L	8ee'L	.
16Bn'JJ	.	.	.	.
16c'LL	8c'	8g'	8ee'	.
16B'	.	.	.	.
16c'	8c'J	8a-X'J	8ff'J	.
16B'JJ	.	.	.	.
=212	=212	=212	=212	=212
4c	4c	4g	16eeLL	.
.	.	.	16c	.
.	.	.	16d	.
.	.	.	16eJJ	.
4r	8r	8r	16fLL	.
.	.	.	16g	.
.	8E'L	8G'L	16a	.
.	.	.	16bnJJ	.
4r	8E'	8G'	16ccLL	.
.	.	.	16b	.
.	8F'J	8A-X'J	16cc	.
.	.	.	16bJJ	.
=213	=213	=213	=213	=213
16r	4E	4G	4cc	.
16CLL	.	.	.	.
16D	.	.	.	.
16EJJ	.	.	.	.
16FLL	8r	8r	8r'	.
16G	.	.	.	.
16A	8c'L	8g'L	8ee'L	.
16BnJJ	.	.	.	.
16cLL	8c'	8g'	8ee'	.
16B	.	.	.	.
16c	8c'J	8a-X'J	8ff'J	.
16BJJ	.	.	.	.
=214	=214	=214	=214	=214
!!linebreak:original
!!linebreak:original
!!linebreak:original
!!linebreak:original
!LO:TX:i:t=cresc.	!	!	!	!
!LO:TX:i:t=cresc.	!	!	!	!
!LO:TX:i:t=cresc.	!	!	!	!
!LO:TX:i:t=cresc.	!	!	!	!
4c	4c	4g	16eeLL	.
.	.	.	16c	.
.	.	.	16d	.
.	.	.	16eJJ	.
8r	8r	8r	16fLL	.
.	.	.	16g	.
8c'L	8g'L	8ee'L	16a	.
.	.	.	16bnJJ	.
8c'	8g'	8ee'	16ccLL	.
.	.	.	16b	.
8F'J	8a-X'J	8ff'J	16cc	.
.	.	.	16bJJ	.
=215	=215	=215	=215	=215
16c	16g	16ee	16ccLL	.
16CCLL	16CLL	16cLL	16cc	.
16DD	16D	16d	16dd	.
16EEJJ	16EJJ	16eJJ	16eeJJ	.
16FFLL	16FLL	16fLL	16ffLL	.
16GG	16G	16g	16gg	.
16AA	16A	16a	16aa	.
16BBnJJ	16BnJJ	16bnJJ	16bbnJJ	.
16CLL	16cLL	16ccLL	16cccLL	.
16BB	16B	16b	16bb	.
16C	16c	16cc	16ccc	.
16BBJJ	16BJJ	16bJJ	16bbJJ	.
=216	=216	=216	=216	=216
4C	4c	4cc	8ccc	.
.	.	.	4ccc	.
4r	4r	4r	.	.
.	.	.	4ccc	.
4r	4r	4r	.	.
.	.	.	(>8ccc	.
=217	=217	=217	=217	=217
!LO:TX:i:t=decresc.	!	!	!	!
4%3r	4%3r	4%3r	8ccc#X)	.
.	.	.	4ccc#	.
.	.	.	4ccc#	.
.	.	.	(>8ccc#	.
=218	=218	=218	=218	=218
4%3r	4%3r	4%3r	8ddd)	.
.	.	.	(>8dddL	p
.	.	.	8bb-XJ)	.
.	.	.	(>8bb-L	.
.	.	.	8ggJ)	.
.	.	.	(>8gg	.
=219	=219	=219	=219	=219
!!linebreak:original
!!linebreak:original
!!linebreak:original
!!linebreak:original
4%3r	4r	4r	8ee)	.
.	.	.	(>8eeL	.
.	4r	4r	8ccJ)	.
.	.	.	(>8ccL	.
.	8b-'L	8cc'L	8eeJ)	.
.	(>8b-J	[8ccJ	(>8ee	.
=220	=220	=220	=220	=220
2.r	8a)	8cc]	8ff)	.
.	(>8aL	(>8ccL	(>8ffL	.
.	8gJ)	8eeJ)	8ggJ)	.
.	(>8gL	(>8eeL	(>8ggL	.
.	8fJ)	8ffJ)	8aaJ)	.
.	(>8f	(>8ff	(>8aa	.
=221	=221	=221	=221	=221
4%3r	4.e)	4aa	4ccc	.
.	.	4gg)	4bb-)	.
.	8r	.	.	.
.	8a'L	4r	4r	.
.	(>8aJ	.	.	.
=222	=222	=222	=222	=222
4%3r	8b-)	4%3r	4%3r	.
.	(>8b-L	.	.	.
.	8gJ)	.	.	.
.	(>8gL	.	.	.
.	8eJ)	.	.	.
.	(>8e	.	.	.
=223	=223	=223	=223	=223
4%3r	8c#X)	4r	4r	.
.	(>8c#L	.	.	.
.	8aJ)	4r	4r	.
.	(>8aL	.	.	.
.	8gJ)	(>4ee	(>4ccc#X	.
.	(>8g	.	.	.
=224	=224	=224	=224	=224
4%3r	8f)	4ff	4ddd	.
.	(>8fL	.	.	.
.	8dJ)	4aa	4fff	.
.	(>8dL	.	.	.
.	8gJ)	4dd)	4bbn)	.
.	(>8g	.	.	.
=225	=225	=225	=225	=225
4r	4.cn)	(>4ff	(>4ddd	.
8r	.	8ee)	8cccn)	.
(>8Bn	8r	8r	8r	.
8cL	4r	4r	4r	.
8c#XJ	.	.	.	.
=226	=226	=226	=226	=226
8d')	4%3r	4%3r	4%3r	.
(>8dL	.	.	.	.
8B-XJ)	.	.	.	.
(>8B-L	.	.	.	.
8GJ)	.	.	.	.
(>8G	.	.	.	.
=227	=227	=227	=227	=227
!!pagebreak:original
!!pagebreak:original
!!pagebreak:original
!!pagebreak:original
8E)	4r	4r	4r	.
(>8EL	.	.	.	.
8CJ)	4r	4r	4r	.
(>8CL	.	.	.	.
8EJ)	8g'L	8cc'L	8bb-'L	.
(>8E	(>8gJ	[8ccJ	(>8bb-J	.
=228	=228	=228	=228	=228
8F)	8f)	8cc]	8aa)	.
(>8FL	(>8fL	(>8ccL	(>8aaL	.
8GJ)	8eJ)	8b-J)	8ggJ)	.
(>8GL	(>8eL	(<8b-L	(>8ggL	.
8AJ)	8cJ)	8aJ)	8ffJ)	.
(>8A	(>8c	(<8a	8ff	.
=229	=229	=229	=229	=229
4.B-)	4.d-X)	4.g)	(>4ff	.
.	.	.	4ee)	.
8r	8r	8r	.	.
4r	4r	8cc'L	4r	.
.	.	(>8ccJ	.	.
=230	=230	=230	=230	=230
4%3r	4r	8dd-X)	4r	.
.	.	(>8dd-L	.	.
.	8dd-X'	8b-J)	4r	.
.	(>8dd-L	(<8b-L	.	.
.	8b-J)	8gJ)	[4ddd-X	.
.	(>8b-	(<8g	.	.
=231	=231	=231	=231	=231
!LO:TX:i:t=cresc.	!	!	!	!
!LO:TX:i:t=cresc.	!	!	!	!
!LO:TX:i:t=cresc.	!	!	!	!
4%3r	8g)	8e)	(>4ddd-]	.
.	(>8gL	(<8eL	.	.
.	8a-XJ)	8fJ)	4ccc	.
.	(>8fL	4aa-X	.	.
.	8BnJ)	.	4fff)	.
.	(<8B	8aa-	.	.
=232	=232	=232	=232	=232
4%3r	8c)	2aa-X	2fff	.
.	(>8cL	.	.	.
.	8ccJ)	.	.	.
.	(>8ccL	.	.	.
.	8cJ)	8.bb-L	8.gggL	.
.	8c	.	.	.
.	.	16ggJk	16eeeJk	.
*clefG2	*	*	*	*
=233	=233	=233	=233	=233
(>4.cc	8fL	8ffL	4fff	.
.	8F'J	8An'J	.	.
.	8F'L	8A'L	4r	.
16ddLL	8F'	8A'	.	.
16ccJJ)	.	.	.	.
8bn'L	8F'	8A'	4r	.
8cc'J	8F'J	8A'J	.	.
=234	=234	=234	=234	=234
!!linebreak:original
!!linebreak:original
!!linebreak:original
!!linebreak:original
2.cc	2.F	2.A	(>4.aa	.
.	.	.	16bb-LL	.
.	.	.	16aaJJ)	.
.	.	.	8gg'L	.
.	.	.	8ff'J	.
=235	=235	=235	=235	=235
(>4.cc	2.G	2.B-	4ee	.
.	.	.	4r	.
16ddLL	.	.	.	.
16ccJJ)	.	.	.	.
8bn'L	.	.	4r	.
8cc'J	.	.	.	.
=236	=236	=236	=236	=236
!LO:TX:i:t=cresc.	!	!	!	!
2.cc	2.G	2.B- 2.e	(>4.bb-	.
.	.	.	16cccLL	.
.	.	.	16bb-JJ)	.
.	.	.	8aa'L	.
.	.	.	8gg'J	.
=237	=237	=237	=237	=237
!LO:TX:i:t=cresc.	!	!	!	!
!LO:TX:i:t=cresc.	!	!	!	!
!LO:TX:i:t=cresc.	!	!	!	!
(>4.cc	2.A	8cL	4ff#X	.
.	.	8cJ 8f#X	.	.
.	.	2c 2f#	4r	.
16ddLL	.	.	.	.
16ccJJ)	.	.	.	.
8bn'L	.	.	4r	.
8cc'J	.	.	.	.
=238	=238	=238	=238	=238
2ee-X	2.A	2.c 2.f#X	[4eee-X	.
.	.	.	8eee-L]	.
.	.	.	(>16dddL	.
.	.	.	16cccJJ	.
4cc	.	.	16bb-LL	.
.	.	.	16aa	.
.	.	.	16gg	.
.	.	.	16ff#XJJ)	.
=239	=239	=239	=239	=239
4dd	4B-	4g	16gg'LL	.
.	.	.	16dd'	.
.	.	.	16een'	.
.	.	.	16ff#X'JJ	.
*clefF4	*	*	*	*
4BB-	4d	4B- 4g	16gg'LL	.
.	.	.	16aa'	.
.	.	.	16bb-'	.
.	.	.	16aa'JJ	.
4r	4r	4r	16gg'LL	.
.	.	.	16dd'	.
.	.	.	16ee'	.
.	.	.	16ff#'JJ	.
=240	=240	=240	=240	=240
!!linebreak:original
!!linebreak:original
!!linebreak:original
!!linebreak:original
4%3r	4%3r	4%3r	16ggLL	.
.	.	.	16aa	.
.	.	.	16bb-	.
.	.	.	16aaJJ	.
!	!	!	!LO:TX:i:t=cresc.	!
.	.	.	16ggLL	.
.	.	.	16dd	.
.	.	.	16ee	.
.	.	.	16ff#XJJ	.
.	.	.	16ggLL	.
.	.	.	16aa	.
.	.	.	16bb-	.
.	.	.	16aaJJ	.
=241	=241	=241	=241	=241
4r	4r	4r	16ggLL	.
.	.	.	16dd	.
.	.	.	16ee	.
.	.	.	16ff#XJJ	.
4r	4r	4r	16ggLL	.
.	.	.	16aa	.
.	.	.	16bb-	.
.	.	.	16aaJJ	.
16r	16r	16r	16ggLL	.
!LO:TX:i:t=cresc.	!	!	!	!
!LO:TX:i:t=cresc.	!	!	!	!
!LO:TX:i:t=cresc.	!	!	!	!
16DLL	16DLL	16dLL	16dd	.
16E	16E	16e	16ee	.
16F#XJJ	16F#XJJ	16f#XJJ	16ff#JJ	.
=242	=242	=242	=242	=242
16GLL	16GLL	16gLL	16ggLL	.
16A	16A	16a	16aa	.
16B-	16B-	16b-	16bb-	.
16cJJ	16cJJ	16ccJJ	16cccJJ	.
16dLL	16dLL	16ddLL	16dddLL	.
16c	16c	16cc	16ccc	.
16B-	16B-	16b-	16bb-	.
16AJJ	16AJJ	16aJJ	16aaJJ	.
16GLL	16GLL	16gLL	16ggLL	.
16Fn	16Fn	16fn	16ffn	.
16E	16E	16e	16ee	.
16DJJ	16DJJ	16dJJ	16ddJJ	.
=243	=243	=243	=243	=243
4.C	4.C	4.c	2.cc	.
(>16DLL	(<16DLL	(<16dLL	.	.
16EJJ	16EJJ	16eJJ	.	.
16FLL	16FLL	16fLL	.	.
16G	16G	16g	.	.
16A	16A	16a	.	.
16BnJJ)	16BnJJ)	16bnJJ)	.	.
=244	=244	=244	=244	=244
8cL	8cL	8ccL	2.gg	.
8CJ	8B-XJ	8eJ	.	.
8CL	8B-L	8eL	.	.
8C	8B-	8e	.	.
8C	8B-	8e	.	.
8CJ	8B-J	8eJ	.	.
=245	=245	=245	=245	=245
!!pagebreak:original
!!pagebreak:original
!!pagebreak:original
!!pagebreak:original
4F'	4A'	4f'	4ff'	.
4r	(<4.A	4.c	(<4.f	.
4r	.	.	.	.
.	8G)	8c	8e)	.
=246	=246	=246	=246	=246
4%3r	(<8GL	(<8cL	(<8eL	.
.	8E)	8g)	8b-)	.
.	(<8E	(<8g	(<8b-	.
.	8F)	8f)	8a)	.
.	(<8F	8f	(<8a	.
.	8B-J)	8fJ	8ddJ)	.
=247	=247	=247	=247	=247
4%3r	(>8B-L	8fL	(>8ddL	.
.	8A)	8f	8cc)	.
.	(>8A	(<8f	(>8cc	.
.	8a)	8cc)	8ff)	.
.	(>8a	(<8cc	(>8ff	.
.	8gJ)	8b-J)	8eeJ)	.
=248	=248	=248	=248	=248
4%3r	(>8gL	(<8b-L	(>8eeL	.
.	8eJ)	8gJ)	8bb-J)	.
.	4e	4g	4bb-	.
.	4r	4r	4r	.
=249	=249	=249	=249	=249
2.F	2.c	2.f	[4a	.
.	.	.	(<8aL]	.
.	.	.	16b-L	.
.	.	.	16aJJ)	.
.	.	.	8g'L	.
.	.	.	8a'J	.
=250	=250	=250	=250	=250
[2.BBn	[2.G	[2.f	[2.dd	.
=251	=251	=251	=251	=251
(<4BB]	(<4G]	4f_	(>4dd]	.
4C')	4A')	4f']	4cc')	.
4CC'	4G'	4B-'	4e'	.
=252	=252	=252	=252	=252
4FF'	4F'	4A'	4f'	.
4r	(>4.a	(>4.cc	(>4.ff	.
4r	.	.	.	.
.	8g)	8b-)	8ee)	.
=253	=253	=253	=253	=253
4%3r	(>8gL	(<8b-L	(>8eeL	.
.	8e)	8g)	8bb-)	.
.	(>8e	(<8g	(>8bb-	.
.	8f)	8a)	8aa)	.
.	(>8f	(<8a	(>8aa	.
.	8b-J)	8ffJ)	8dddJ)	.
=254	=254	=254	=254	=254
4%3r	(>8b-L	8ffL	(>8dddL	.
.	8a)	8ff	8ccc)	.
.	(>8A	(>8ff	(>8ccc	.
.	8a)	8cc)	8fff)	.
.	(>8a	(>8cc	(>8fff	.
.	8gJ)	8b-J)	8eeeJ)	.
=255	=255	=255	=255	=255
!!linebreak:original
!!linebreak:original
!!linebreak:original
!!linebreak:original
4%3r	(>8gL	(>8b-L	(>8eeeL	.
.	8eJ)	8ggJ)	8bbb-J)	.
.	4e	4gg	4bbb-	.
.	4r	4r	4r	.
=256	=256	=256	=256	=256
4%3r	4%3r	4%3r	4%3r	.
=257	=257	=257	=257	=257
2.F	2.f	2.c	2.A-X 2.a-X	.
=258	=258	=258	=258	=258
2.D-X	2.d-X	2.f	2.A-X 2.a-X	.
=259	=259	=259	=259	=259
2BBn	2Bn	2dn 2f	2A-X 2a-X	.
4BB-X	4B-X	4d 4f	4A- 4a-	.
=260	=260	=260	=260	=260
4AA'	4A'	4d' 4f	4An' 4an	.
4GG'	4d'	4g'	4b-'	.
4C'	4B-'	4e'	4g'	.
=261	=261	=261	=261	=261
(>4.F	8AL	8fL	4f	.
.	8c	8A 8f	.	.
.	8c	8A 8f	4r	.
16GLL	8c	8A 8f	.	.
16FJJ)	.	.	.	.
8E'L	8c	8A 8f	4r	.
8F'J	8cJ	8AJ 8f	.	.
=262	=262	=262	=262	=262
4FF	8cL	8AL 8f	4r	.
.	8c	8A 8f	.	.
4r	8c	8A 8f	4a	.
.	8c	8A 8f	.	.
.	.	.	(<16qg/LL	.
.	.	.	16qa/JJ	.
4r	8c	8A 8f	4a)	.
.	8cJ	8AJ 8f	.	.
=263	=263	=263	=263	=263
(>4.F	8cL	8B-L 8g	(>4cc	.
.	8c	8B- 8g	.	.
.	8c	8B- 8g	4b-)	.
16GLL	8c	8B- 8g	.	.
16FJJ)	.	.	.	.
8E'L	8c	8B- 8g	4r	.
8F'J	8cJ	8B-J 8g	.	.
=264	=264	=264	=264	=264
!!linebreak:original
!!linebreak:original
!!linebreak:original
!!linebreak:original
4FF	8cL	8B-L 8g	4r	.
.	8c	8B- 8g	.	.
4r	8c	8B- 8g	4ee	.
.	8c	8B- 8g	.	.
.	.	.	(<16qdd/LL	.
.	.	.	16qee/JJ	.
4r	8c	8B- 8g	4ee)	.
.	8cJ	8B-J 8g	.	.
=265	=265	=265	=265	=265
(>16GLL	8cL	8AL 8f	(>8ffL	.
16F	.	.	.	.
16E	8c	8f 8a	8aaJ)	.
16FJJ)	.	.	.	.
(>16GLL	8c	8f 8a	4cc	.
16F	.	.	.	.
16E	8c	8f 8a	.	.
16FJJ)	.	.	.	.
(>16GLL	8c	8f 8a	4r	.
16F	.	.	.	.
16E	8cJ	8fJ 8a	.	.
16FJJ)	.	.	.	.
=266	=266	=266	=266	=266
4FF	8cL	8fL 8a	(>16bb-LL	.
.	.	.	16aa	.
.	8c	8f 8a	16gg	.
.	.	.	16aaJJ)	.
4r	8c	8f 8a	(>16bb-LL	.
.	.	.	16aa	.
.	8c	8f 8a	16gg	.
.	.	.	16aaJJ)	.
4r	8c	8f 8a	(>16bb-LL	.
.	.	.	16aa	.
.	8cJ	8fJ 8a	16gg	.
.	.	.	16aaJJ)	.
=267	=267	=267	=267	=267
(>16GLL	8cL	8gL 8b-	(>4ccc	.
16F	.	.	.	.
16E	8c	8g 8b-	.	.
16FJJ)	.	.	.	.
(>16GLL	8c	8g 8b-	4bb-)	.
16F	.	.	.	.
16E	8c	8g 8b-	.	.
16FJJ)	.	.	.	.
(>16GLL	8c	8g 8b-	4r	.
16F	.	.	.	.
16E	8cJ	8gJ 8b-	.	.
16FJJ)	.	.	.	.
=268	=268	=268	=268	=268
4FF	8cL	8gL 8b-	(>16fffLL	.
.	.	.	16eee	.
.	8c	8g 8b-	16ddd	.
.	.	.	16eeeJJ)	.
4r	8c	8g 8b-	(>16fffLL	.
.	.	.	16eee	.
.	8c	8g 8b-	16ddd	.
.	.	.	16eeeJJ)	.
4r	8c	8g 8b-	(>16fffLL	.
.	.	.	16eee	.
.	8cJ	8gJ 8b-	16ddd	.
.	.	.	16eeeJJ)	.
=269	=269	=269	=269	=269
!!pagebreak:original
!!pagebreak:original
!!pagebreak:original
!!pagebreak:original
4FF'	4c'	4f' 4a	8fff'L	.
.	.	.	16eee'L	.
.	.	.	16ddd'JJ	.
4F'	4c'	4f' 4a	16ccc'LL	.
.	.	.	16bb-'	.
.	.	.	16aa'	.
.	.	.	16gg'JJ	.
4r	4r	4r	16ff'LL	.
.	.	.	16ccc'	.
.	.	.	16bb-'	.
.	.	.	16aa'JJ	.
=270	=270	=270	=270	=270
!LO:TX:i:t=cresc.	!	!	!	!
4%3r	4%3r	4%3r	16ggLL	.
.	.	.	16ff	.
.	.	.	16ee	.
.	.	.	16ddJJ	.
.	.	.	16ccLL	.
.	.	.	16aa	.
.	.	.	16gg	.
.	.	.	16ffJJ	.
.	.	.	16eeLL	.
.	.	.	16dd	.
.	.	.	16cc	.
.	.	.	16b-JJ	.
=271	=271	=271	=271	=271
16r	16r	16r	16aLL	.
!LO:TX:i:t=cresc.	!	!	!	!
!LO:TX:i:t=cresc.	!	!	!	!
!LO:TX:i:t=cresc.	!	!	!	!
!LO:TX:i:t=cresc.	!	!	!	!
16FLL	16fLL	16ffLL	16ff	.
16E	16e	16ee	16ee	.
16DJJ	16dJJ	16ddJJ	16ddJJ	.
16CLL	16cLL	16ccLL	16ccLL	.
16BB-	16B-	16b-	16b-	.
16AA	16A	16a	16a	.
16GGJJ	16GJJ	16gJJ	16gJJ	.
16FFLL	16FLL	16fLL	16fLL	.
16F	16f	16ff	16ff	.
16E	16e	16ee	16ee	.
16DJJ	16dJJ	16ddJJ	16ddJJ	.
=272	=272	=272	=272	=272
16CLL	16cLL	16ccLL	16ccLL	.
16BB-	16B-	16b-	16b-	.
16AA	16A	16a	16a	.
16GGJJ	16GJJ	16gJJ	16gJJ	.
(<16FFLL	(<16FLL	(<16fLL	(<16fLL	.
16EE	16E	16e	16e	.
16FF	16F	16f	16f	.
16EEJJ	16EJJ	16eJJ	16eJJ	.
16FFLL	16FLL	16fLL	16fLL	.
16EE	16E	16e	16e	.
16FF	16F	16f	16f	.
16EEJJ)	16EJJ)	16eJJ)	16eJJ)	.
=273	=273	=273	=273	=273
4FF'	4F'	4f'	4f'	.
4GG'	4G'	4g'	4g'	.
4AA'	4A'	4a'	4a'	.
=274	=274	=274	=274	=274
4BB-'	4B-'	4B-'	4b-'	.
4C'	4c'	4c'	4cc'	.
4D'	4d'	4d'	4dd'	.
=275	=275	=275	=275	=275
!!linebreak:original
!!linebreak:original
!!linebreak:original
!!linebreak:original
[2.E-X	[2.e-X	[2.e-X	[2.ee-X	.
=276	=276	=276	=276	=276
2.E-;]	2.e-;]	2.e-;]	2.ee-;]	.
=277	=277	=277	=277	=277
4DD'	4D'	4d'	4d'	.
4EEn'	4En'	4en'	4en'	.
4FF#X'	4F#X'	4f#X'	4f#X'	.
=278	=278	=278	=278	=278
4GG'	4G'	4G'	4g'	.
4AA'	4A'	4A'	4a'	.
4BB-'	4B-'	4B-'	4b-'	.
=279	=279	=279	=279	=279
[2.C	[2.c	[2.c	[2.cc	.
=280	=280	=280	=280	=280
2.C;]	2.c;]	2.c;]	2.cc;]	.
=281	=281	=281	=281	=281
4%3r	4%3r	4G'	8ff'L	.
.	.	.	(>16ggL	.
.	.	.	16ffJJ)	.
.	.	4A'	8ee'L	.
.	.	.	(>16ffL	.
.	.	.	16eeJJ)	.
.	.	4Bn'	8dd'L	.
.	.	.	(>16eeL	.
.	.	.	16ddJJ)	.
=282	=282	=282	=282	=282
2.r	2.r	4c'	8cc'L	.
.	.	.	(>16ddL	.
.	.	.	16ccJJ)	.
.	.	4d'	8bn'L	.
.	.	.	(>16ccL	.
.	.	.	16bJJ)	.
.	.	4e'	8a'L	.
.	.	.	(<16bL	.
.	.	.	16aJJ)	.
=283	=283	=283	=283	=283
4%3r	4%3r	(<4f	(<4.g	.
.	.	4d	.	.
.	.	.	16aLL	.
.	.	.	16gJJ)	.
.	.	4Bn)	8f#X'L	.
.	.	.	8g'J	.
=284	=284	=284	=284	=284
!!linebreak:original
!!linebreak:original
!!linebreak:original
!!linebreak:original
(<4BBn	(<4.G	4G	(>4ddd	.
4D	.	4r	4bbn	.
.	16ALL	.	.	.
.	16GJJ)	.	.	.
4GG)	8F#X'L	4r	4ffn)	.
.	8G'J	.	.	.
=285	=285	=285	=285	=285
4C	4C'	8b-X'L	4ee	.
.	.	(>16ccL	.	.
.	.	16b-JJ)	.	.
4r	4D'	8a'L	4r	.
.	.	(<16b-L	.	.
.	.	16aJJ)	.	.
4r	4E'	8g'L	4r	.
.	.	(<16aL	.	.
.	.	16gJJ)	.	.
=286	=286	=286	=286	=286
4%3r	4F'	8f'L	4%3r	.
.	.	(<16gL	.	.
.	.	16fJJ)	.	.
.	4G'	8e'L	.	.
.	.	(<16fL	.	.
.	.	16eJJ)	.	.
.	4A'	8d'L	.	.
.	.	(<16eL	.	.
.	.	16dJJ)	.	.
=287	=287	=287	=287	=287
4%3r	(<4B-	(<4.c	4%3r	.
.	4G	.	.	.
.	.	16dLL	.	.
.	.	16cJJ)	.	.
.	4E)	8Bn'L	.	.
.	.	8c'J	.	.
=288	=288	=288	=288	=288
(<4CC	(>4.C	4b-X	(>4gg	.
4EE	.	4r	4ee	.
.	16dLL	.	.	.
.	16cJJ)	.	.	.
4GG)	8Bn'L	4r	4b-)	.
.	8c'J	.	.	.
=289	=289	=289	=289	=289
4C	(<4c	(<4.c	4f 4a	.
4r	4A	.	4r	.
.	.	16dLL	.	.
.	.	16cJJ)	.	.
4r	4F)	8Bn'L	4r	.
.	.	8c'J	.	.
=290	=290	=290	=290	=290
(<4CC	(>4.C	4a	(>4aa	.
4FF	.	4r	4ff	.
.	16dLL	.	.	.
.	16cJJ)	.	.	.
4AA)	8Bn'L	4r	4cc)	.
.	8c'J	.	.	.
=291	=291	=291	=291	=291
!!pagebreak:original
!!pagebreak:original
!!pagebreak:original
!!pagebreak:original
!LO:TX:i:t=cresc.	!	!	!	!
!LO:TX:i:t=cresc.	!	!	!	!
4C	(>4g	4%3r	(>4.b-	.
4r	4e	.	.	.
.	.	.	16ccLL	.
.	.	.	16b-JJ)	.
4r	4c)	.	8a'L	.
.	.	.	8b-'J	.
=292	=292	=292	=292	=292
!LO:TX:i:t=cresc.	!	!	!	!
!LO:TX:i:t=cresc.	!	!	!	!
(<4CC	(>4ee	(>4gg	(>4bb-	.
4C)	4b-	4ee	4gg	.
4C#X	4g)	4b-)	4ee)	.
=293	=293	=293	=293	=293
2.D	2.f	2.a	(>4.ff	.
.	.	.	16ggLL	.
.	.	.	16ffJJ)	.
.	.	.	8ee'L	.
.	.	.	8ff'J	.
=294	=294	=294	=294	=294
2.E	2.B-	2.cc#X	2.gg	.
=295	=295	=295	=295	=295
2.F#X	2.e-X	2.ccn	(>4.aa	.
.	.	.	16bb-LL	.
.	.	.	16aaJJ)	.
.	.	.	8gg'L	.
.	.	.	8aa'J	.
=296	=296	=296	=296	=296
2.G	2.d	2.b-	2.bb-	.
=297	=297	=297	=297	=297
2.An	2.g-X	2.ee-X	(>4.ccc	.
.	.	.	16dddLL	.
.	.	.	16cccJJ)	.
.	.	.	8bb-'L	.
.	.	.	8ccc'J	.
=298	=298	=298	=298	=298
2.Bn	2.f	2.a-X	2.ddd	.
=299	=299	=299	=299	=299
2.c	(>4.f	(<4.an	4r	.
.	.	.	4cc'	pp
.	16gLL	16b-LL	.	.
.	16fJJ)	16aJJ)	.	.
.	8e'L	8g'L	4cc'	.
.	8f'J	8a'J	.	.
=300	=300	=300	=300	=300
2C	2g	2b-	(>4.cc	.
.	.	.	16ddLL	.
.	.	.	16ccJJ)	.
4CC	4E	4G	8b-'L	.
.	.	.	8cc'J	.
=301	=301	=301	=301	=301
(<4.FF	4F	4A	4f	.
.	4C	4A	4r	.
16GGLL	.	.	.	.
16FFJJ)	.	.	.	.
8EE'L	4C	4A	4r	.
8FF'J	.	.	.	.
=302	=302	=302	=302	=302
!!linebreak:original
!!linebreak:original
!!linebreak:original
!!linebreak:original
2.FF	(<2.D-X	(<2.B-	(<16fLL	.
.	.	.	16e	.
.	.	.	16dn	.
.	.	.	16eJJ	.
.	.	.	16fLL	.
.	.	.	16e	.
.	.	.	16d	.
.	.	.	16eJJ	.
.	.	.	16fLL	.
.	.	.	16e	.
.	.	.	16d	.
.	.	.	16eJJ)	.
=303	=303	=303	=303	=303
(<4.FF	2.C	4A')	4f'	.
.	.	4f'	4a'	.
16GGLL	.	.	.	.
16FFJJ)	.	.	.	.
8EE'L	.	4f'	4a'	.
8FF'J	.	.	.	.
=304	=304	=304	=304	=304
[2.FF	2.D-X	(<16fLL	2.b-	.
.	.	16e	.	.
.	.	16dn	.	.
.	.	16eJJ	.	.
.	.	16fLL	.	.
.	.	16e	.	.
.	.	16d	.	.
.	.	16eJJ	.	.
.	.	16fLL	.	.
.	.	16e	.	.
.	.	16d	.	.
.	.	16eJJ)	.	.
=305	=305	=305	=305	=305
4FF]	4C)	4f	4a	.
4r	4f'	8r	8r	.
.	.	(<16b-LL	(>16dd-XLL	.
.	.	16aJJ)	16ccJJ)	.
4r	4f'	8g'L	8b-'L	.
.	.	8a'J	8cc'J	.
=306	=306	=306	=306	=306
4%3r	(>16fLL	(>2.b-	(>2.dd-X	.
.	16e	.	.	.
.	16dn	.	.	.
.	16eJJ	.	.	.
.	16fLL	.	.	.
.	16e	.	.	.
.	16d	.	.	.
.	16eJJ	.	.	.
.	16fLL	.	.	.
.	16e	.	.	.
.	16d	.	.	.
.	16eJJ	.	.	.
=307	=307	=307	=307	=307
!!linebreak:original
!!linebreak:original
!!linebreak:original
!!linebreak:original
4r	4f)	4a)	4cc)	.
4FF	4cc)	8r	8r	.
.	.	(>16ggLL	(>16bb-LL	.
.	.	16ffJJ)	16aaJJ)	.
4FF	4cc'	8ee'L	8gg'L	.
.	.	8ff'J	8aa'J	.
=308	=308	=308	=308	=308
!LO:TX:i:t=cresc.	!	!	!	!
!LO:TX:i:t=cresc.	!	!	!	!
!LO:TX:i:t=cresc.	!	!	!	!
!LO:TX:i:t=cresc.	!	!	!	!
(<16FFLL	2.dd-X	2.gg	2.bb-	.
16EE	.	.	.	.
16DDn	.	.	.	.
16EEJJ	.	.	.	.
16FFLL	.	.	.	.
16EE	.	.	.	.
16DD	.	.	.	.
16EEJJ	.	.	.	.
16FFLL	.	.	.	.
16EE	.	.	.	.
16DD	.	.	.	.
16EEJJ)	.	.	.	.
=309	=309	=309	=309	=309
4FF	4cc	4ff	(>8aaL	.
.	.	.	16bb-L	.
.	.	.	16aaJJ)	.
4r	4r	4r	8gg#X'L	.
.	.	.	8aa'J	.
8E'L	8e'L	8ee'L	8ee'L	.
8F'J	8f'J	8ff'J	8ff'J	.
=310	=310	=310	=310	=310
4C	4c	4cc	(>8ccL	.
.	.	.	16ddL	.
.	.	.	16ccJJ)	.
4r	4r	4r	8bn'L	.
.	.	.	8cc'J	.
8GG#X'L	8G#X'L	8g#X'L	8g#X'L	.
8AA'J	8A'J	8a'J	8a'J	.
=311	=311	=311	=311	=311
4FF	4F	4f	(<8fL	.
.	.	.	16gnL	.
.	.	.	16fJJ)	.
4r	4r	4r	8e'L	.
.	.	.	8f'J	.
8CC'L	8C'L	8c'L	8c'L	.
8EE'J	8E'J	8e'J	8e'J	.
=312	=312	=312	=312	=312
4FF'	4F'	4f'	4f'	.
4FF'	4F'	4A' 4f	4a' 4ff	.
4r	4r	4r	4r	.
==	==	==	==	==
*-	*-	*-	*-	*-
!!!system-decoration: [(s1,s2,s3,s4)]
!!!RDF**kern: > = above
!!!RDF**kern: < = below
